!!!!SEGMENT: pl-sa--77-a-ii-17--003_kotowicz--passio-ex-c-moll-aprehendit-ergo-pilatus.krn
!!!cenid: 17xx:343
!!!COM: Kotowicz
!!!COM-rismID: pe41024678
!!!CDT:
!!!CNT:
!!!OPR: Passio ex c-moll
!!!OTL: Aprehendit ergo Pilatus
!!!OMV: 003
!!!PDT: 1767
!!!AGN: Sacred; Passions
!!!SMS-siglum: PL-SA
!!!SMS-shelfmark: 77/A II 17
!!!SMS-shelfwork: 001-003 M
!!!NIFC-rismSourceID: 1001077252
!!!NIFC-rismChildID: 1001077252
!!!NIFC-islandoraID:
!!!URL-pdf-islandora:
!!!URL-scan: https://bc.bdsandomierz.pl/dlibra/publication/1354/edition/1322/content @EN{Scan in the Sandomierz Diocese Digital Library} @PL{Skany w portalu Cyfrowa Biblioteka Diecezjalna w Sandomierzu}
!!!ONB-nifc: UWAGA: części Passio: Passio Domini nostri, Płaczcie angeli, Aprehendit ergo Pilatus, Coś uczyniło źródło niewinności, Orabat autem Jesus, Qui passus est
!!!AIN: 2 cor 1 empty 1 oboe 1 organ 2 violn 1 vox
!!!key:
**kern	**fba	**kern	**dynam	**kern	**dynam	**kern	**text	**kern	**text	**kern	**kern	**kern
*part8	*	*part7	*part7	*part6	*part6	*part5	*part5	*part4	*part4	*part3	*part2	*part1
*staff8	*	*staff7	*	*staff6	*	*staff5	*staff5	*staff4	*staff4	*staff3	*staff2	*staff1
*Iorgan	*	*Ivioln	*	*Ivioln	*	*Iempty	*	*Ivox	*	*Icor	*Icor	*Ioboe
*I"ORGANO	*	*I"Violino Secundo	*	*I"Violino: Primo..	*	*I"Baſso	*	*I"Canto	*	*I"Corno Secundo Ex Dis	*I"Corno Primo Ex Diſ	*I"Oboe Primo
*I'org	*	*I'vl 2	*	*I'vl 1	*	*I'B	*	*I'S	*	*I'cor 2 in E♭	*I'cor 1 in E♭	*I'ob 1
*clefF4	*	*clefG2	*	*clefG2	*	*clefF4	*	*clefC1	*	*clefG2	*clefG2	*clefG2
*	*	*	*	*	*	*	*	*	*	*ITrd5c9	*ITrd5c9	*
*k[b-e-a-]	*	*k[b-e-a-]	*	*k[b-e-a-]	*	*k[b-e-a-]	*	*k[b-e-a-]	*	*k[b-e-a-]	*k[b-e-a-]	*k[b-e-a-]
*E-:	*	*E-:	*	*E-:	*	*E-:	*	*E-:	*	*E-:	*E-:	*E-:
*M2/2	*	*M2/2	*	*M2/2	*	*M2/2	*	*M2/2	*	*M2/2	*M2/2	*M2/2
*met(c|)	*	*met(c|)	*	*met(c|)	*	*met(c|)	*	*met(c|)	*	*met(c|)	*met(c|)	*met(c|)
=1	=1	=1	=1	=1	=1	=1	=1	=1	=1	=1	=1	=1
*	*	*	*	*2\right	*	*	*	*	*	*	*	*2\right
!LO:TX:a:t=P:problem= 2\, 4\, 8\, 16\	!	!LO:TX:a:t=P:problem= 2\, 4\, 8\, 16\	!	!	!	!LO:TX:a:t=P:problem= 2\, 4\, 8\, 16\	!	!LO:TX:a:t=P:problem= 2\, 4\, 8\, 16\	!	!	!LO:TX:a:t=P:problem= 2\, 4\, 8\, 16\	!LO:TX:a:t=P:problem= 2\, 4\, 8\, 16\
!	!	!	!	!	!	!	!	!	!	!LO:TX:a:t=P:problem=w pierwszym systemie brak klucza	!	!
!LO:TX:a:t=P:problem= oznaczenie metryczne odwrócone	!	!LO:TX:B:a:t=Pars.\n2da.:problem=napis przed kluczem	!	!LO:TX:i:b:t=Aprehendit	!	!LO:TX:a:t=P:problem= oznaczenie metryczne odwrócone	!	!LO:TX:a:t=P:problem= kolejność bemoli zawsze&colon; a-, b-, ee-	!	!LO:TX:a:t=P:problem= 2\, 4\, 8\, 16\	!LO:TX:a:i:t=Graue	!LO:TX:a:t=P:problem= nazwa partii nie pojawia się na stronie tytułowej, zapisana została inną ręką, prawie dokładnie dubluje vl 1; nie ma również partii ob 2
!LO:TX:b:i:t=Aprehendit	!	!LO:TX:i:b:t=Aprehendit	!	!LO:TX:B:i:a:t=Pars\n2da.:problem=napis przed kluczem	!	!LO:TX:a:t=P:problem= kolejność bemoli zawsze&colon; BB-, E-, A-	!	!LO:TX:a:t=P:problem= metrum w postaci przekreślonego odwróconego S	!	!LO:TX:B:a:t=Pars\n2da:problem=napis przed metrum	!LO:TX:a:t=P:problem=oznaczenie metryczne odwrócone	!LO:TX:a:t=P:problem= w pierwszym systemie bemole b-, b-, ee-, w pozostałych - poprawny układ
!LO:TX:a:i:t=Graue	!	!LO:TX:a:t=P:problem= kolejność bemoli zawsze a-, b-, ee-	!	!LO:TX:a:t=P:problem= 2\, 4\, 8\, 16\	!	!LO:TX:i:a:t=Graue	!	!LO:TX:a:t=P:problem=w pierwszym systemie brak klucza	!	!LO:TX:a:t=P:problem= oznaczenie metryczne odwrócone	!LO:TX:b:i:t=Apprehendit	!LO:TX:b:i:t=Aprehendit
!LO:TX:a:t=P:problem= bemol As zapisany oktawę wyżej	!	!LO:TX:a:t=P:problem= oznaczenie metryczne odwrócone	!	!LO:TX:a:t=P:problem=metrum w postaci przekreślonego odwróconego S	!	!LO:TX:B:a:t=Pars 2da:problem=napis przed kluczem	!	!LO:TX:B:i:a:t=Pars\nIIda:problem=napis przed znakami przykluczowymi	!	!LO:TX:b:i:t=Appre(hen)dit	!LO:TX:B:a:t=Pars\n2da:problem=napis przed kluczem	!LO:TX:B:a:t=Pars 2da:problem=napis przed kluczem
!	!	!	!	!	!	!LO:N:vis=00	!	!LO:N:vis=00	!	!LO:N:vis=00	!LO:N:vis=00	!
4E-\	.	2g/	.	2ee-\	.	00r	.	00r	.	00r	00r	2ee-\
4E-\	.	.	.	.	.	.	.	.	.	.	.	.
4E-\	.	2g/	.	2b-\	.	.	.	.	.	.	.	2b-\
4E-\	.	.	.	.	.	.	.	.	.	.	.	.
=2	=2	=2	=2	=2	=2	=2	=2	=2	=2	=2	=2	=2
!	!	!	!	!	!	!	!	!	!	!	!	!LO:SIC:o=8g 8b-
4E-\	.	4e-/	.	4g/	.	.	.	.	.	.	.	4g/ 4b-
!	!	!	!	!	!	!	!	!	!	!	!	!LO:SIC:o=8b-
4E-\	.	4g/	.	4b-/	.	.	.	.	.	.	.	4b-/
!	!	!	!	!	!	!	!	!	!	!	!	!LO:SIC:o=8g
4E-\	.	4e-/	.	4g/	.	.	.	.	.	.	.	4g/
!	!	!	!	!	!	!	!	!	!	!	!	!LO:SIC:o=8e-
4E-\	.	4B-/	.	4e-/	.	.	.	.	.	.	.	4e-/
=3	=3	=3	=3	=3	=3	=3	=3	=3	=3	=3	=3	=3
4BB-/	.	4f/	.	4a-/	.	.	.	.	.	.	.	4a-/
4BB-/	.	4d/	.	4f/	.	.	.	.	.	.	.	4f/
4BB-/	.	2B-/	.	2d/	.	.	.	.	.	.	.	2d/
4BB-/	.	.	.	.	.	.	.	.	.	.	.	.
=4	=4	=4	=4	=4	=4	=4	=4	=4	=4	=4	=4	=4
4E-\	.	2.G/	.	2.e-/	.	.	.	.	.	.	.	2.e-/
4E-\	.	.	.	.	.	.	.	.	.	.	.	.
4A-\	.	.	.	.	.	.	.	.	.	.	.	.
4A-\	.	4e-/	.	4cc\	.	.	.	.	.	.	.	4cc\
!LO:LB:g=original	!	!	!	!LO:LB:g=original	!	!	!	!	!	!	!	!LO:LB:g=original
=5	=5	=5	=5	=5	=5	=5	=5	=5	=5	=5	=5	=5
!	!	!	!	!	!	!LO:N:vis=00	!	!LO:N:vis=00	!	!LO:N:vis=00	!LO:N:vis=00	!
4G\	.	2.e-/	.	2.b-\	.	00r	.	00r	.	00r	00r	2.b-\
4G\	.	.	.	.	.	.	.	.	.	.	.	.
4F\	.	.	.	.	.	.	.	.	.	.	.	.
4F\	.	4d/	.	4a-\	.	.	.	.	.	.	.	4a-\
!	!	!LO:LB:g=original	!	!	!	!	!	!	!	!	!	!
=6	=6	=6	=6	=6	=6	=6	=6	=6	=6	=6	=6	=6
4E-\	.	4e-/	.	4g/	.	.	.	.	.	.	.	4g/
4E-\	.	4g/	.	4b-/	.	.	.	.	.	.	.	4b-/
4E-\	.	4e-/	.	4g/	.	.	.	.	.	.	.	4g/
4E-\	.	4B-/	.	4e-/	.	.	.	.	.	.	.	4e-/
=7	=7	=7	=7	=7	=7	=7	=7	=7	=7	=7	=7	=7
4BB-/	.	4f/	.	4a-/	.	.	.	.	.	.	.	4a-/
4BB-/	.	4d/	.	4f/	.	.	.	.	.	.	.	4f/
4BB-/	.	2B-/	.	2d/	.	.	.	.	.	.	.	2d/
4BB-/	.	.	.	.	.	.	.	.	.	.	.	.
=8	=8	=8	=8	=8	=8	=8	=8	=8	=8	=8	=8	=8
.	.	.	.	(8qqf/	.	.	.	.	.	.	.	.
4E-\	.	2.G/	.	2.e-/)	.	.	.	.	.	.	.	2.e-/
8E-\L	.	.	.	.	.	.	.	.	.	.	.	.
8D\J	.	.	.	.	.	.	.	.	.	.	.	.
4E-\	.	.	.	.	.	.	.	.	.	.	.	.
4E-\	.	4b-\	.	4gg\	.	.	.	.	.	.	.	4gg\
=9	=9	=9	=9	=9	=9	=9	=9	=9	=9	=9	=9	=9
*	*	*2\right	*	*	*	*	*	*	*	*	*	*
!	!	!	!	!	!	!LO:N:vis=00	!	!LO:N:vis=00	!	!LO:N:vis=00	!LO:N:vis=00	!
4D/	.	2b-\	.	2ff\	.	00r	.	00r	.	00r	00r	2ff\
4D/	.	.	.	.	.	.	.	.	.	.	.	.
4D/	.	2f/	.	2b-\	.	.	.	.	.	.	.	2b-\
4D/	.	.	.	.	.	.	.	.	.	.	.	.
!LO:LB:g=original	!	!	!	!	!	!	!	!	!	!	!	!
=10	=10	=10	=10	=10	=10	=10	=10	=10	=10	=10	=10	=10
4C/	.	4an/	.	4ee-\	.	.	.	.	.	.	.	4ee-\
4C/	.	4a/	.	4cc\	.	.	.	.	.	.	.	4cc\
4FF/	.	4c/	.	2an/	.	.	.	.	.	.	.	2an\
4FF/	.	4c/	.	.	.	.	.	.	.	.	.	.
!	!	!	!	!LO:LB:g=original	!	!	!	!	!	!	!	!
=11	=11	=11	=11	=11	=11	=11	=11	=11	=11	=11	=11	=11
4BB-/	.	4d/	.	4b-/	.	.	.	.	.	.	.	4b-\
4BB-/	.	4ee-\	.	4gg\	.	.	.	.	.	.	.	4gg\
4BB-/	.	4dd\	.	4ff\	.	.	.	.	.	.	.	4ff\
4F\	.	8ee-\L	.	8gg\L	.	.	.	.	.	.	.	8gg\L
!	!	!	!	!	!	!	!	!	!	!	!	!LO:SIC:s=8aan
.	.	8cc\J	.	8aan\J	.	.	.	.	.	.	.	8aa-\J
=12	=12	=12	=12	=12	=12	=12	=12	=12	=12	=12	=12	=12
4BB-/	.	4dd\	.	4bb-\	.	.	.	.	.	.	.	4bb-\
4BB-/	.	4ee-\	.	4gg\	.	.	.	.	.	.	.	4gg\
!	!	!	!	!	!	!	!	!	!	!	!	!LO:TX:a:t=P:problem= interpretacja przednutki niepewna
.	.	.	.	8qqff/	.	.	.	.	.	.	.	8qqff/
4FF/	.	4cc\	.	4ee-\	.	.	.	.	.	.	.	4ee-\
.	.	.	.	8qqdd/	.	.	.	.	.	.	.	.
4FF/	.	4an\	.	4cc\	.	.	.	.	.	.	.	4cc\
!	!	!LO:LB:g=original	!	!	!	!	!	!	!	!	!	!
=13	=13	=13	=13	=13	=13	=13	=13	=13	=13	=13	=13	=13
!	!	!	!	!	!	!LO:N:vis=00	!	!LO:N:vis=00	!	!LO:N:vis=00	!LO:N:vis=00	!
4BB-/	.	4f/	.	4ee-\	.	00r	.	00r	.	00r	00r	4ee-\
4BB-/	.	4an/	.	4cc\	.	.	.	.	.	.	.	4cc\
4FF/	.	4c/	.	2an/	.	.	.	.	.	.	.	2an\
4FF/	.	4c/	.	.	.	.	.	.	.	.	.	.
=14	=14	=14	=14	=14	=14	=14	=14	=14	=14	=14	=14	=14
!	!	!	!	!LO:TX:a:t=P:problem=tryl przedłużony	!	!	!	!	!	!	!	!
.	.	.	.	8qqcc/	.	.	.	.	.	.	.	.
4BB-/	.	2d/	.	2.b-TT>\	.	.	.	.	.	.	.	2.b-\
4BB-/	.	.	.	.	.	.	.	.	.	.	.	.
4E-\	.	4G/	.	.	.	.	.	.	.	.	.	.
4A-X\	.	4e-/	.	4cc\	.	.	.	.	.	.	.	4cc\
=15	=15	=15	=15	=15	=15	=15	=15	=15	=15	=15	=15	=15
4E-\	.	4g/	.	4b-/	.	.	.	.	.	.	.	4b-/
4E-\	.	4e-/	.	4g/	.	.	.	.	.	.	.	4g/
4E-\	.	2G/	.	2e-/	.	.	.	.	.	.	.	2e-/
4E-\	.	.	.	.	.	.	.	.	.	.	.	.
!LO:LB:g=original	!	!	!	!	!	!	!	!	!	!	!	!LO:LB:g=original
=16	=16	=16	=16	=16	=16	=16	=16	=16	=16	=16	=16	=16
!LO:TX:a:t=P:problem=podwójna linia w bc	!	!	!	!	!	!	!	!	!	!	!	!
4BB-/	X_ 5_	4f/	.	4a-X/	.	.	.	.	.	.	.	4a-X/
4BB-/	.	4d/	.	4f/	.	.	.	.	.	.	.	4f/
4BB-/	.	2B-X/	.	2d/	.	.	.	.	.	.	.	2d/
4BB-/	x	.	.	.	.	.	.	.	.	.	.	.
!	!	!	!	!LO:LB:g=original	!	!	!	!	!	!	!	!
=17	=17	=17	=17	=17	=17	=17	=17	=17	=17	=17	=17	=17
!	!	!	!	!	!	!LO:N:vis=00	!	!LO:N:vis=00	!	!LO:N:vis=00	!LO:N:vis=00	!
4E-\	X 3	2.G/	.	2e-/	.	00r	.	00r	.	00r	00r	2e-/
4E-\	.	.	.	.	.	.	.	.	.	.	.	.
.	.	.	.	(<16qqa-/LL	.	.	.	.	.	.	.	16qqa-/LL
.	.	.	.	16qqb-/JJ	.	.	.	.	.	.	.	16qqb-/JJ
4A-\	.	.	.	2cc\)	.	.	.	.	.	.	.	2cc\
4A-\	.	4e-/	.	.	.	.	.	.	.	.	.	.
=18	=18	=18	=18	=18	=18	=18	=18	=18	=18	=18	=18	=18
.	.	.	.	(<8qqcc/	.	.	.	.	.	.	.	.
4G\	6_ 3_	2e-/	.	2.b-T>\)	.	.	.	.	.	.	.	2.b-\
4G\	.	.	.	.	.	.	.	.	.	.	.	.
4F\	6 3	2d/	.	.	.	.	.	.	.	.	.	.
4F\	.	.	.	4a-\	.	.	.	.	.	.	.	4a-\
=19	=19	=19	=19	=19	=19	=19	=19	=19	=19	=19	=19	=19
4E-\	.	4e-/	.	4g/	.	.	.	.	.	.	.	4g/
4E-\	.	4g/	.	4b-/	.	.	.	.	.	.	.	4b-/
4E-\	.	4e-/	.	4g/	.	.	.	.	.	.	.	4g/
4E-\	.	4B-/	.	4e-/	.	.	.	.	.	.	.	4e-/
!	!	!LO:LB:g=original	!	!	!	!	!	!	!	!	!	!
=20	=20	=20	=20	=20	=20	=20	=20	=20	=20	=20	=20	=20
4BB-/	.	4f/	.	4a-/	.	.	.	.	.	.	.	4a-/
4A-\	.	4d/	.	4f/	.	.	.	.	.	.	.	4f/
4B-\	.	2B-/	.	2d/	.	.	.	.	.	.	.	2d/
4BB-/	.	.	.	.	.	.	.	.	.	.	.	.
=21	=21	=21	=21	=21	=21	=21	=21	=21	=21	=21	=21	=21
*2\right	*	*	*	*	*	*	*	*	*	*	*	*
.	.	.	.	8qqd/	.	.	.	.	.	.	.	.
2E-\	.	2G/	.	2e-/	.	1r	.	1r	.	1r	1r	2e-/
2r	.	2rg	.	2rg	.	.	.	.	.	.	.	2r
!LO:LB:g=original	!	!	!	!	!	!	!	!	!	!	!	!
=22	=22	=22	=22	=22	=22	=22	=22	=22	=22	=22	=22	=22
*	*	*	*	*	*	*2\right	*	*2\right	*	*2\right	*	*
!LO:TX:a:i:t=Tutti	!	!LO:TX:a:i:t=Tutti	!	!LO:TX:a:i:t=Tutti	!	!	!	!	!	!LO:TX:i:a:t=Fresco:rj	!	!LO:TX:i:a:t=Tutti
4E-\	.	2g/	.	2ee-\	.	2E-\	Ap-	2e-/	A-	2g\	2b-\	2ee-\
4E-\	.	.	.	.	.	.	.	.	.	.	.	.
4E-\	.	2g/	.	2b-\	.	2E-\	-pre-	2g/	-pre-	2g\	2b-\	2b-\
4E-\	.	.	.	.	.	.	.	.	.	.	.	.
=23	=23	=23	=23	=23	=23	=23	=23	=23	=23	=23	=23	=23
.	.	.	.	.	.	.	.	.	.	.	8qqa-/	.
4E-\	.	4e-/	.	4g/	.	2E-\	-hen-	2b-\	-hen-	2e-\	2g\	4g/
!	!	!	!	!LO:TX:a:t=P:problem=bemol nad nutą	!	!	!	!	!	!	!	!
4E-\	.	4g/	.	4b-X/	.	.	.	.	.	.	.	4b-X/
4E-\	.	4e-/	.	4g/	.	2E-\	-dit	2ee-\	-dit	2e-\	2g\	4g/
4E-\	.	4B-/	.	4e-/	.	.	.	.	.	.	.	4e-/
!	!	!	!	!LO:LB:g=original	!	!	!	!	!	!	!	!
=24	=24	=24	=24	=24	=24	=24	=24	=24	=24	=24	=24	=24
!	!	!	!	!	!	!	!	!	!	!	!	!LO:TX:a:t=P:problem= brak tego taktu
.	.	.	.	.	.	.	.	8qqb-/	.	.	.	.
4BB-/	.	4f/	.	4a-/	.	1BB-T>	er-	1a-T>	er-	2f\	2a-\	1ryy
4BB-/	.	4d/	.	4f/	.	.	.	.	.	.	.	.
.	.	.	.	.	.	.	.	.	.	.	8qqg/	.
4BB-/	.	2B-/	.	2d/	.	.	.	.	.	2B-/	2f\	.
4BB-/	.	.	.	.	.	.	.	.	.	.	.	.
!	!	!	!	!	!	!LO:LB:g=original	!	!	!	!	!	!
=25	=25	=25	=25	=25	=25	=25	=25	=25	=25	=25	=25	=25
.	.	.	.	8qqf/	.	.	.	.	.	.	.	.
4E-\	.	2.G/	.	2.e-/	.	2.E-\	-go	2.g\	-go	2e-\	2.g\	2.e-/
4E-\	.	.	.	.	.	.	.	.	.	.	.	.
4E-\	.	.	.	.	.	.	.	.	.	2e-\	.	.
4A-\	.	4e-/	.	4cc\	.	4A-\	Pi-	4cc\	Pi-	.	4cc\	4cc\
=26	=26	=26	=26	=26	=26	=26	=26	=26	=26	=26	=26	=26
!	!	!	!	!	!	!	!	!	!	!	!	!LO:TX:a:t=P:problem= interpretacja przednutki niepewna
.	.	.	.	8qqcc/	.	.	.	.	.	.	.	8qqb-/
4G\	.	2.e-/	.	2.b-/	.	2.Gt>\	-la-	2.b-T>\	-la-	2.g\	2.b-\	2.b-\
4G\	.	.	.	.	.	.	.	.	.	.	.	.
4F\	.	.	.	.	.	.	.	.	.	.	.	.
4F\	.	4d/	.	4a-/	.	4F\	-tus	4a-\	-tus	4f\	4a-\	4a-\
!	!	!	!	!	!	!	!	!LO:LB:g=original	!	!	!	!
=27	=27	=27	=27	=27	=27	=27	=27	=27	=27	=27	=27	=27
4E-\	.	4e-/	.	4g/	.	2.E-\	Je-	(>4g\	Je-	2e-\	2g\	4g/
4E-\	.	4g/	.	4b-/	.	.	.	4b-\)	.	.	.	4b-/
4E-\	.	4e-/	.	4g/	.	.	.	4g\	-sum	2g\	2b-\	4g/
4E-\	.	4B-/	.	4e-/	.	4E-\	-sum	4e-\	et	.	.	4e-/
!LO:LB:g=original	!	!LO:LB:g=original	!	!	!	!	!	!	!	!LO:LB:g=original	!	!LO:PB:g=original
=28	=28	=28	=28	=28	=28	=28	=28	=28	=28	=28	=28	=28
!LO:TX:a:t=P:problem=podwójna linia w bc	!	!	!	!	!	!	!	!	!	!	!	!LO:TX:a:t=P:problem= kolejność stron w skanie zaburzona, przepisuję tu ze s. 42.
4BB-/	X_ 5_	4f/	.	4a-/	.	4BB-/	fla-	4a-\	fla-	2f\	2a-\	4a-/
4BB-/	.	4d/	.	4f/	.	4BB-/	-gel-	4a-\	-gel-	.	.	4f/
4BB-/	.	2B-/	.	2d/	.	4BB-/	-la-	4f/	-la-	2B-/	2g\	2d/
4BB-/	x	.	.	.	.	4BB-/	-vit	4d/	-vit	.	.	.
!	!	!	!	!	!	!	!	!	!	!	!LO:LB:g=original	!
=29	=29	=29	=29	=29	=29	=29	=29	=29	=29	=29	=29	=29
!	!	!	!	!	!	!LO:SIC:l:s=e	!	!	!	!	!	!
4E-\	X 6	2G/	.	2e-/	.	4E-\	te-	4e-/	E-	2e-\	2g\	2e-/
8E-\L	.	.	.	.	.	(>8E-\L	-um	4ee-\	-um	.	.	.
8D\J	.	.	.	.	.	8D\J)	.	.	.	.	.	.
4E-\	.	2ee-\	.	2gg\	.	2E-\	et	2gg\	et	2g\	2b-\	2gg\
4E-\	X 6	.	.	.	.	.	.	.	.	.	.	.
=30	=30	=30	=30	=30	=30	=30	=30	=30	=30	=30	=30	=30
4D/	.	2.dd\	.	2.ffT\	.	2.D/	mi-	2.ff\	mi-	2g\	2b-\	2ff\
4D/	.	.	.	.	.	.	.	.	.	.	.	.
4BB-/	.	.	.	.	.	.	.	.	.	2g\	2b-\	4ee-\
4BB-/	.	(>8cc\L	.	(>8ee-\L	.	8C/L	-li-	(>8ee-\L	-li-	.	.	4dd\
.	.	8b-\J)	.	8dd\J)	.	8BB-/J	.	8dd\J)	.	.	.	.
!	!	!	!	!LO:LB:g=original	!	!	!	!	!	!	!	!
=31	=31	=31	=31	=31	=31	=31	=31	=31	=31	=31	=31	=31
4C/	.	4cc/	.	4ee-\	.	2F\	-teſ	(>4ee-\	-tes	2f\	2f\	4ee-\
4C/	.	4an/	.	4cc\	.	.	.	4cc\)	.	.	.	4cc\
!	!	!	!	!LO:TX:a:t=P:":problem=zapis "tr	!	!	!	!	!	!	!	!
4FF/	X n	2f/	.	2ant>/	.	2F\	ple-	2an\	ple-	2f\	2f\	2an\
4FF/	.	.	.	.	.	.	.	.	.	.	.	.
!	!	!	!	!	!	!LO:LB:g=original	!	!	!	!	!	!
=32	=32	=32	=32	=32	=32	=32	=32	=32	=32	=32	=32	=32
!	!	!	!	!	!	!LO:SIC:s=2F	!	!	!	!	!	!
!	!	!	!	!	!	!LO:SIC:l:s=cten	!	!	!	!	!	!
4BB-/	.	4d/	.	4b-/	.	2G\	-ten-	2b-\	-cte-	2B-/	2g\	4b-/
4G\	X 3	4d/	.	4f/	.	.	.	.	.	.	.	4f/
4G\	X 7	4d/	.	4b-/	.	4G\	-tes	4b-\	-ntes	2rg	2r	4b-/
4A-\	X 6	4f/	.	4cc/	.	4An\	Co-	4cc\	Co-	.	.	4cc/
=33	=33	=33	=33	=33	=33	=33	=33	=33	=33	=33	=33	=33
4B-\	.	4f/	.	4dd\	.	4B-\	-ro-	4dd\	-ro-	4f\	4f\	4dd\
4BB-/	.	4dd\	.	4bb-\	.	4BB-/	-nam	4dd\	-nam	4f\	4f\	4bb-\
4A-\	X 6	4cc\	.	4ff\	.	4G\	spi-	4ee-\	spi-	4f\	4f\	4ff\
4G\	X 5	4b-\	.	4dd\	.	4G\	-ne-	4dd\	-ne-	4f\	4f\	4dd\
!LO:LB:g=original	!	!	!	!	!	!	!	!LO:LB:g=original	!	!	!	!
=34	=34	=34	=34	=34	=34	=34	=34	=34	=34	=34	=34	=34
4An\	.	4an/	.	4cc/	.	4An\	-am	4cc\	-am	4f\	4f\	4cc\
4D\	X 3	4d/	.	4f/	.	4D\	in-	4f/	im-	4r	4r	4f/
4E-\	X 3	4e-/	.	4g/	.	4E-\	-po-	4g/	-po-	2r	2r	4g/
4F\	X n3r	4c/	.	4an/	.	4F\	-su-	4an/	-su-	.	.	4an/
!	!	!LO:LB:g=original	!	!	!	!	!	!	!	!	!	!
=35	=35	=35	=35	=35	=35	=35	=35	=35	=35	=35	=35	=35
2G\	.	4d/	.	4b-\	.	4G\	-e-	4b-\	-e-	4f\	4f\	4b-\
.	.	8b-\L	.	8dd\L	.	4G\	-runt	4b-\	-runt	4r	4r	8dd\L
.	.	8an\J	.	8cc\J	.	.	.	.	.	.	.	8cc\J
2D\	X 6	4b-\	.	4dd\	.	2D/	ca-	2b-\	Ca-	2r	2r	4dd\
.	.	4dd\	.	4ff\	.	.	.	.	.	.	.	4ff\
=36	=36	=36	=36	=36	=36	=36	=36	=36	=36	=36	=36	=36
2E-\	X 6	4ee-\	.	4gg\	.	4E-\	-pi-	4an\	-pi-	4f\	4f\	4gg\
.	X 5	4cc\	.	4ee-\	.	4E-\	-ti	8b-\L	-ti	8f\L	4f\	4ee-\
.	.	.	.	.	.	.	.	8cc\J	.	8f\J	.	.
4F\	X 4	4c/	.	4an/	.	2F\	E.-	2cc\	E.-	4f\	4f\	4an/
4FF/	.	4e-/	.	4cc/	.	.	.	.	.	4f\	4f\	4cc/
!	!	!	!	!LO:LB:g=original	!	!	!	!	!	!LO:LB:g=original	!	!
=37	=37	=37	=37	=37	=37	=37	=37	=37	=37	=37	=37	=37
2BB-/	.	4d/	.	4b-\	.	2BB-/	-Jus	2b-\	-Jus	2f\	2f\	4b-/
.	.	4B-/	.	4B-/	.	.	.	.	.	.	.	4bb-\
2E-\	X -5	4g/	.	4ee-\	.	2G\	et	2b-\	et	2g\	2b-\	4ee-\
.	X 3	4b-/	.	4gg\	.	.	.	.	.	.	.	4gg\
!	!	!	!	!	!	!LO:LB:g=original	!	!	!	!	!	!LO:LB:g=original
=38	=38	=38	=38	=38	=38	=38	=38	=38	=38	=38	=38	=38
!	!	!LO:TX:a:t=P:problem=znak początku repetycji	!	!	!	!	!	!	!	!LO:SIC:s=2ee	!	!
2E-\	.	4ee-\	.	4ee-\|	.	2G\	ueſ-	2b-\	ves-	2f\	2b-\	4ee-\
!	!	!LO:TX:i:a:t=bis	!	!	!	!	!	!	!	!	!	!
.	.	4ee-\	.	4ee-\|	.	.	.	.	.	.	.	4ee-\
2E-\	X -4	4e-/	.	(>4e-/	.	4E-\	-te	4g\	-te	4e-\	4g\	4e-/
.	X 2	4ee-\	.	4ee-\)	.	4F\	pur-	4a-\	pur-	4f\	4a-\	4ee-\
!	!	!LO:TX:a:t=P:problem=znak końca repetycji	!	!	!	!	!	!	!	!	!LO:LB:g=original	!
=39	=39	=39	=39	=39	=39	=39	=39	=39	=39	=39	=39	=39
!	!	!LO:TX:a:t=P:problem=takt zapisany powtórką	!	!	!	!	!	!	!	!	!	!
2E-\	X 5_	4ee-\	.	4ee-\|	.	4G\	-pu-	4b-\	-pu-	2g\	2b-\	4ee-\
.	.	4ee-\	.	4ee-\|	.	4G\	-re-	4b-\	-re-	.	.	4ee-\
!	!	!	!	!	!	!	!	!LO:TX:a:t=P:problem=nieczytelny tekst (takty 39-40)	!	!	!	!
2E-\	.	4e-/	.	(>4e-/	.	4E-\	-a	4g/	-a	2g\	2a-\	4e-/
.	x	4ee-\	.	4ee-\)	.	4G\	cir-	4e-/	cir-	.	.	4ee-\
!	!	!	!	!	!	!	!	!LO:LB:g=original	!	!	!	!
=40	=40	=40	=40	=40	=40	=40	=40	=40	=40	=40	=40	=40
2A-\	5 3	2ee-\	.	2ee-\	.	2A-\	-cu(m)-	2cc\	-Cum-	2e-\	2cc\	2ee-\
2G\	6 3	2ee-\	.	2ee-\	.	2G\	-De-	2b-\	-de-	2e-\	2b-\	2ee-\
!LO:LB:g=original	!	!	!	!	!	!	!	!	!	!	!	!
=41-	=41	=41	=41	=41	=41	=41	=41	=41	=41	=41	=41	=41
2F\	6 3	2dd\	.	2dd\	.	2F\	-de-	2a-\	-de-	2B-/	2a-\	2dd\
2E-\	.	2ee-\	.	2ee-\	.	2E-\	-runt	2g\	-runt	2e-\	2g\	2ee-\
=42	=42	=42	=42	=42	=42	=42	=42	=42	=42	=42	=42	=42
.	.	.	.	.	.	.	.	8qqg/	.	.	.	.
2B-\	4 2	2ee-\	.	2ee-\	.	2B-\	e-	1f	e-	2B-/	2f\	2ee-\
2BB-/	X 3	2dd\	.	2dd\	.	2BB-/	.	.	.	2B-/	2f\	2dd\
!	!	!LO:LB:g=original	!	!	!	!	!	!	!	!	!	!
=43	=43	=43	=43	=43	=43	=43	=43	=43	=43	=43	=43	=43
!LO:TX:i:a:t=Solo	!	!	!	!	!	!	!	!	!	!	!	!
!	!	!	!	!	!	!	!	!LO:TX:a:i:t=Solo	!	!	!	!
4E-\	.	4ee-\	.	4ee-\	.	4E-\	-Um	4g\	-um	4e-\	4g\	4ee-\
4E-\	.	4r	.	4r	.	4r	.	4b-\	A-	4r	4r	4r
4G\	.	2r	.	2r	.	2r	.	4ee-\	-it	2r	2rdd	2r
4E-\	.	.	.	.	.	.	.	4b-\	pi-	.	.	.
!	!	!	!	!LO:LB:g=original	!	!	!	!	!	!	!	!
=44	=44	=44	=44	=44	=44	=44	=44	=44	=44	=44	=44	=44
!	!	!LO:TX:a:t=3	!	!LO:TX:a:t=3	!	!	!	!	!	!	!LO:TX:a:t=3	!
!	!	!LO:N:vis=0	!	!LO:N:vis=0	!	!LO:N:vis=0	!	!	!	!LO:N:vis=0	!LO:N:vis=0	!LO:N:vis=0
2A-\	X 3	0r	.	0r	.	0r	.	4cc\	-la-	0r	0r	0r
.	X 4	.	.	.	.	.	.	8dd\L	-tus	.	.	.
.	X 5	.	.	.	.	.	.	8ee-\J	.	.	.	.
2A-\	X 6	.	.	.	.	.	.	4ff\	Ju-	.	.	.
.	X 5	.	.	.	.	.	.	4ee-\	-de-	.	.	.
=45	=45	=45	=45	=45	=45	=45	=45	=45	=45	=45	=45	=45
4B-\	.	.	.	.	.	.	.	4dd\	-is	.	.	.
8G\L	X 6	.	.	.	.	.	.	8ee-\L	.	.	.	.
8A-\J	.	.	.	.	.	.	.	8ff\J	.	.	.	.
4B-\	.	.	.	.	.	.	.	2ff\	di-	.	.	.
4BB-/	6 4	.	.	.	.	.	.	.	.	.	.	.
.	5 3	.	.	.	.	.	.	.	.	.	.	.
!	!	!	!	!	!	!LO:LB:g=original	!	!	!	!	!	!
=46	=46	=46	=46	=46	=46	=46	=46	=46	=46	=46	=46	=46
4E-\	.	1r	.	1r	.	4r	.	4ee-\	-cens	1r	1r	1r
4r	.	.	.	.	.	4E-\	Ec-	4r	.	.	.	.
2rBB	.	.	.	.	.	4G\	-ce	2rcc	.	.	.	.
.	.	.	.	.	.	4B-\	Rex	.	.	.	.	.
!LO:LB:g=original	!	!	!	!	!	!	!	!LO:LB:g=original	!	!	!	!
=47	=47	=47	=47	=47	=47	=47	=47	=47	=47	=47	=47	=47
!LO:TX:a:i:t=Tutti. Od	!	!	!	!	!	!	!	!	!	!	!	!
2rBB	.	2r	.	2r	.	2e-\	ues-	2r	.	2rg	2r	2r
4r	.	4r	.	4r	.	4E-/	-ter	4r	.	4r	4r	4r
!	!	!	!	!	!	!	!	!LO:TX:a:i:t=Tutti:rj	!	!	!	!
4E-\	.	4ee-\	.	4ee-\	.	4E-/	at	4b-\	at	4g\	4b-\	4ee-\
=48	=48	=48	=48	=48	=48	=48	=48	=48	=48	=48	=48	=48
!	!	!	!	!	!	!	!	!LO:TX:a:t=P:problem= w środku taktu czarny kwadrat (nadliczbowa pauza?, zamazanie?)	!	!	!	!
2A-\	5 3	8ee-\L	.	8ee-\L	.	2A-\	il-	2cc\	il-	2a-\	2cc\	8ee-\L
.	.	8ee-\	.	8ee-\	.	.	.	.	.	.	.	8ee-\
.	.	8ee-\	.	8ee-\	.	.	.	.	.	.	.	8ee-\
.	.	8ee-\J	.	8ee-\J	.	.	.	.	.	.	.	8ee-\J
!	!	!	!	!LO:TX:a:t=P:problem=mixed beam	!	!	!	!	!	!LO:LB:g=original	!	!LO:TX:a:t=P:problem=mixed beam
2G\	6 3	8ee-\L	.	8e-/L	.	2G\	-li	2b-\	-li	2g\	2b-\	8e-/L
.	.	8ee-\	.	8ee-\	.	.	.	.	.	.	.	8ee-\
.	.	8ee-\	.	8ee-\	.	.	.	.	.	.	.	8ee-\
.	.	8ee-\J	.	8ee-\J	.	.	.	.	.	.	.	8ee-\J
=49	=49	=49	=49	=49	=49	=49	=49	=49	=49	=49	=49	=49
2A-\	.	8ee-\L	.	8ee-\L	.	2A-\	ma-	2cc\	ma-	2a-\	2cc\	8ee-\L
.	.	8ee-\	.	8ee-\	.	.	.	.	.	.	.	8ee-\
.	.	8ee-\	.	8ee-\	.	.	.	.	.	.	.	8ee-\
.	.	8ee-\J	.	8ee-\J	.	.	.	.	.	.	.	8ee-\J
2G\	.	8ee-\L	.	8ee-\L	.	4G\|	-gis	4b-\	-gis	2g\	2b-\	8ee-\L
.	.	8ee-\	.	8ee-\	.	.	.	.	.	.	.	8ee-\
.	.	8ee-\	.	8ee-\	.	4G\|	cla-	4b-\	cla-	.	.	8ee-\
.	.	8ee-\J	.	8ee-\J	.	.	.	.	.	.	.	8ee-\J
!	!	!	!	!	!	!	!	!	!	!	!	!LO:LB:g=original
=50	=50	=50	=50	=50	=50	=50	=50	=50	=50	=50	=50	=50
2.A-\	X 5	8ee-\L	.	8ee-\L	.	4A-\	-ma-	4cc\	-ma-	2a-\	4cc\	8ee-\L
.	.	8ee-\	.	8ee-\	.	.	.	.	.	.	.	8ee-\
.	.	8ee-\	.	8ee-\	.	4A-\	-bant	4cc\	-bant	.	4r	8ee-\
.	.	8ee-\J	.	8ee-\J	.	.	.	.	.	.	.	8ee-\J
!	!	!LO:TX:a:t=P:problem=mixed beam	!	!LO:TX:a:t=P:problem=mixed beam	!	!	!	!	!	!	!	!LO:TX:a:t=P:problem=mixed beam
.	.	8e-/L	.	8.e-/L	.	4r	.	4r	.	4r	2rdd	8e-/L
.	.	8e-/	.	.	.	.	.	.	.	.	.	8e-/
.	.	.	.	16e-/K	.	.	.	.	.	.	.	.
8r	.	8ff\	.	8ff\	.	4An\	at	4cc\	at	4aX\	.	8ff\
8F\	.	8ff\J	.	8ff\J	.	.	.	.	.	.	.	8ff\J
!	!	!LO:LB:g=original	!	!LO:LB:g=original	!	!	!	!	!	!	!	!
=51	=51	=51	=51	=51	=51	=51	=51	=51	=51	=51	=51	=51
!	!	!	!	!	!	!	!	!	!	!LO:TX:a:t=P:problem=znak początku repetycji	!LO:TX:a:t=P:problem=znak początku repetycji	!
2B-\	.	8ff\L	.	8ff\L	.	2B-\	il-	2dd\	il-	2f\	2dd\	8ff\L
.	.	8ff\	.	8ff\	.	.	.	.	.	.	.	8ff\
.	.	8ff\	.	8ff\	.	.	.	.	.	.	.	8ff\
.	.	8ff\J	.	8ff\J	.	.	.	.	.	.	.	8ff\J
!	!	!LO:TX:a:t=P:problem=mixed beam	!	!LO:TX:a:t=P:problem=mixed beam	!	!	!	!	!	!LO:SIC:s=2f#	!	!LO:TX:a:t=P:problem=mixed beam
!	!	!	!	!	!	!	!	!	!	!LO:TX:a:i:t=bis:rj	!LO:TX:a:i:t=bis:rj	!
2An\	X 6	8f/L	.	8f/L	.	2An\	-li	2cc\	-li	2a-\	2cc\	8f/L
.	.	8f/	.	8ff\	.	.	.	.	.	.	.	8ff\
.	.	8ff\	.	8ff\	.	.	.	.	.	.	.	8ff\
.	.	8ff\J	.	8ff\J	.	.	.	.	.	.	.	8ff\J
!	!	!	!	!	!	!	!	!	!	!LO:TX:a:t=P:problem=znak końca repetycji	!LO:TX:a:t=P:problem=znak końca repetycji	!
!	!	!	!	!	!	!LO:LB:g=original	!	!	!	!	!	!
=52	=52	=52	=52	=52	=52	=52	=52	=52	=52	=52	=52	=52
!	!	!	!	!	!	!	!	!	!	!LO:TX:a:t=P:problem=takt zapisany powtórką	!LO:TX:a:t=P:problem=takt zapisany powtórką	!
2B-\	.	8ff\L	.	8ff\L	.	2B-\	ma-	2dd\	Ma-	2f\	2dd\	8ff\L
.	.	8ff\	.	8ff\	.	.	.	.	.	.	.	8ff\
.	.	8ff\	.	8ff\	.	.	.	.	.	.	.	8ff\
.	.	8ff\J	.	8ff\J	.	.	.	.	.	.	.	8ff\J
!	!	!	!	!	!	!	!	!	!	!LO:SIC:s=2f#	!	!
2An\	X 6	8ff\L	.	8ff\L	.	4An\	-gis	4cc\	-gis	2a-\	2cc\	8ff\L
.	.	8ff\	.	8ff\	.	.	.	.	.	.	.	8ff\
.	.	8ff\	.	8ff\	.	4A\	cla-	4cc\	cla-	.	.	8ff\
.	.	8ff\J	.	8ff\J	.	.	.	.	.	.	.	8ff\J
!	!	!	!	!	!	!	!	!	!	!	!LO:PB:g=original	!
=53	=53	=53	=53	=53	=53	=53	=53	=53	=53	=53	=53	=53
2B-\	.	8ff\L	.	8ff\L	.	4B-\	-ma-	4dd\	-ma-	2f\	2dd\	8ff\L
.	.	8ff\	.	8ff\	.	.	.	.	.	.	.	8ff\
.	.	8ff\	.	8ff\	.	4B-\	-bant	4dd\	-bant	.	.	8ff\
.	.	8ff\J	.	8ff\J	.	.	.	.	.	.	.	8ff\J
!	!	!LO:TX:a:t=P:problem=mixed beam	!	!LO:TX:a:t=P:problem=mixed beam	!	!	!	!	!	!	!	!LO:TX:a:t=P:problem=mixed beam
4r	.	8f/L	.	8f/L	.	4r	.	4r	.	4r	4r	8f/L
.	.	8f/	.	8f/	.	.	.	.	.	.	.	8f/
*	*	*	*	*	*	*	*ij	*	*	*	*	*
4BB-/	.	8bb-\	.	8bb-\	.	4BB-/	at	4ff\	.	4B-/	4f\	8bb-\
.	.	8bb-\J	.	8bb-\J	.	.	.	.	.	.	.	8bb-\J
!LO:LB:g=original	!	!	!	!	!	!	!	!LO:PB:g=original	!	!	!	!
=54	=54	=54	=54	=54	=54	=54	=54	=54	=54	=54	=54	=54
2E-\	X 6	8bb-\L	.	8bb-\L	.	2E-/	il-	2gg\	Il-	2e-\	2g\	8bb-\L
.	.	8bb-\	.	8bb-\	.	.	.	.	.	.	.	8bb-\
.	.	8bb-\	.	8bb-\	.	.	.	.	.	.	.	8bb-\
.	.	8bb-\J	.	8bb-\J	.	.	.	.	.	.	.	8bb-\J
!	!	!LO:TX:a:t=P:problem=mixed beam	!	!LO:TX:a:t=P:problem=mixed beam	!	!	!	!	!	!	!	!LO:TX:a:t=P:problem=mixed beam
2D\	.	8b-/L	.	8b-/L	.	2D/	-li	2ff\	-li	2B-/	2f\	8b-/L
.	.	8bb-\	.	8b-/	.	.	.	.	.	.	.	8b-/
.	.	8bb-\	.	8bb-\	.	.	.	.	.	.	.	8bb-\
.	.	8bb-\J	.	8bb-\J	.	.	.	.	.	.	.	8bb-\J
!	!	!	!	!	!	!	!	!	!	!	!	!LO:LB:g=original
=55	=55	=55	=55	=55	=55	=55	=55	=55	=55	=55	=55	=55
2E-/	.	4b-\	.	4b-/	.	2E-/	ma-	2gg\	ma-	2e-/	2g\	4b-\
.	.	4ee-\	.	4gg\	.	.	.	.	.	.	.	4gg\
4D/	.	4dd\	.	4ff\	.	4D/	-gis	4ff\	-gis	4B-/	4f\	4ff\
4C/	.	4cc\	.	4ee-\	.	4C/	cla-	4ee-\	cla-	4G/	4e-\	4ee-\
!	!	!LO:LB:g=original	!	!LO:LB:g=original	!	!	!	!	!	!	!	!
=56	=56	=56	=56	=56	=56	=56	=56	=56	=56	=56	=56	=56
2BB-/	.	4b-\	.	4dd\	.	2BB-/	-ma-	(>4dd\	-ma-	2B-/	2f\	4dd\
.	.	4dd\	.	4b-\	.	.	.	4b-\)	.	.	.	4b-\
2G\	X 6	4g/	.	4ee-\	.	2G\	-bant	[>2ee-\	-bant	2e-/	2g\	4ee-\
*	*	*	*	*	*	*	*Xij	*	*	*	*	*
.	.	4ee-\	.	4gg\	.	.	.	.	.	.	.	4gg\
=57	=57	=57	=57	=57	=57	=57	=57	=57	=57	=57	=57	=57
!LO:SIC:s=2A-	!	!	!	!	!	!	!	!	!	!	!	!
2An\	X 5	4ee-\	.	4aa-\	.	2A-X\	di-	4ee-\]	.	4f\	4a-\	4aa-\
.	.	4ff\	.	4ff\	.	.	.	4ff\	di-	4e-\	4g\	4ff\
2B-\	X 6	4dd\	.	4b-/	.	2B-X\	-cen-	2ff\	-cen-	2B-/	2f\	4b-\
.	.	4dd\	.	4ff/	.	.	.	.	.	.	.	4ff\
=58	=58	=58	=58	=58	=58	=58	=58	=58	=58	=58	=58	=58
4E-\	.	4ee-\	.	4gg\	.	2E-\	-tes	4ee-\	-tes	2e-\	2g\	4gg\
4B-\	.	4b-\	.	4b-/	.	.	.	4r	.	.	.	4b-\
4G\	.	4g/	.	4g/	.	2r	.	2rcc	.	2rg	2r	4g/
4E-\	.	4e-/	.	4e-/	.	.	.	.	.	.	.	4e-/
!	!	!	!	!	!	!LO:LB:g=original	!	!	!	!	!	!
=59	=59	=59	=59	=59	=59	=59	=59	=59	=59	=59	=59	=59
!LO:TX:a:t=3	!	!	!	!	!	!LO:TX:a:t=3	!	!	!	!LO:TX:a:t=3	!LO:TX:a:t=3	!
!LO:N:vis=0	!	!	!	!	!	!LO:N:vis=0	!	!	!	!LO:N:vis=0	!LO:N:vis=0	!
0r	.	2g/	.	2ee-\	.	0r	.	2ee-\	Re-	0r	0r	2ee-\
.	.	2g/	.	2b-\	.	.	.	2b-\	-gem	.	.	2b-\
=60	=60	=60	=60	=60	=60	=60	=60	=60	=60	=60	=60	=60
.	.	4e-/	.	4g/	.	.	.	4g/	non	.	.	4g/
.	.	4g/	.	4b-/	.	.	.	4b-/	ha-	.	.	4b-/
.	.	4e-/	.	4g/	.	.	.	4g/	-be-	.	.	4g/
.	.	4B-/	.	4e-/	.	.	.	4e-/	-m(us)	.	.	4e-/
!	!	!	!	!	!	!	!	!LO:LB:g=original	!	!	!	!
=61	=61	=61	=61	=61	=61	=61	=61	=61	=61	=61	=61	=61
1r	.	4f/	.	4a-/	.	1r	.	4a-/	ni-	1r	1r	4a-/
.	.	4f/	.	4a-/	.	.	.	4a-/	-si	.	.	4a-/
.	.	4d/	.	4f/	.	.	.	4f/	Ce-	.	.	4f/
.	.	4B-/	.	4d/	.	.	.	4d/	-sa-	.	.	4d/
!	!	!	!	!	!	!	!	!	!	!LO:PB:g=original	!	!
=62	=62	=62	=62	=62	=62	=62	=62	=62	=62	=62	=62	=62
!	!	!LO:TX:a:t=P:problem=mixed beam	!	!LO:TX:a:t=P:problem=mixed beam	!	!	!	!	!	!	!	!
4r	.	8G/L	.	8e-/L	.	4r	.	4e-/	-rem	2B-/	4r	8ee-\L
.	.	8bb-\	.	8bb-\	.	.	.	.	.	.	.	8bb-\
4B-\	.	8bb-\	.	8bb-\	.	4B-\	non	4ff\	non	.	4f\	8bb-\
.	.	8bb-\J	.	8bb-\J	.	.	.	.	.	.	.	8bb-\J
!	!	!LO:LB:g=original	!	!	!	!	!	!	!	!	!	!
2e-\	.	8bb-\L	.	8bb-\L	.	2e-\	n(on)	2gg\	non	2e-\	2g\	8bb-\L
.	.	8bb-\	.	8bb-\	.	.	.	.	.	.	.	8bb-\
.	.	8bb-\	.	8bb-\	.	.	.	.	.	.	.	8bb-\
!	!	!	!	!LO:TX:b:i:t=uertatu(r) cito	!	!	!	!	!	!	!	!
.	.	8bb-\J	.	8bb-\J	.	.	.	.	.	.	.	8bb-\J
!LO:LB:g=original	!	!	!	!LO:PB:g=original	!	!	!	!	!	!	!	!
=63	=63	=63	=63	=63	=63	=63	=63	=63	=63	=63	=63	=63
!	!	!	!	!LO:TX:a:t=P:problem=kolejność bemoli&colon; a-, b-, ee-	!	!	!	!	!	!	!	!
2d\	X 6	8bb-\L	.	8bb-\L	.	2d\	n(on)	2ff\	non	2B-/	2f\	8bb-\L
.	.	(>8bb-\	.	8bb-\	.	.	.	.	.	.	.	8bb-\
.	.	8bb-\	.	8bb-\	.	.	.	.	.	.	.	8bb-\
.	.	8bb-'>\J	.	8bb-\J	.	.	.	.	.	.	.	8bb-\J
!	!	!	!	!	!	!	!	!	!	!	!	!LO:LB:g=original
2e-\	.	8bb-'>\L	.	8bb-\L	.	2e-\	n(on)	2gg\	ha-	2e-\	2g\	8bb-\L
.	.	8bb-'>\)	.	8bb-\	.	.	.	.	.	.	.	8bb-\
.	.	8bb-'>\	.	8bb-\	.	.	.	.	.	.	.	8bb-\
.	.	8bb-'>\J	.	8bb-\J	.	.	.	.	.	.	.	8bb-\J
!	!	!	!	!	!	!	!	!	!	!	!LO:LB:g=original	!
=64	=64	=64	=64	=64	=64	=64	=64	=64	=64	=64	=64	=64
!	!	!LO:TX:a:t=P:problem=mixed beam	!	!LO:TX:a:t=P:problem=mixed beam	!	!	!	!	!	!	!	!LO:TX:a:t=P:problem=mixed beam
2d\	.	8bb-\L	.	8bb-\L	.	2d\	ha-	(>4ff\	-be-	2B-/	2e-\	8bb-\L
.	.	8B-/	.	8B-/	.	.	.	.	.	.	.	8b-/
.	.	8B-/	.	8B-/	.	.	.	4dd\)	.	.	.	8b-/
.	.	8B-/J	.	8B-/J	.	.	.	.	.	.	.	8b-/J
2B-\	.	8B-/L	.	8B-/L	.	2B-\	-bemus	2b-\	-mus	2B-/	2f\	8b-\L
.	.	8B-/	.	8B-/	.	.	.	.	.	.	.	8b-\
.	.	8B-/	.	8B-/	.	.	.	.	.	.	.	8b-\
.	.	8B-/J	.	8B-/J	.	.	.	.	.	.	.	8b-\J
=65	=65	=65	=65	=65	=65	=65	=65	=65	=65	=65	=65	=65
!	!	!LO:TX:a:t=P:problem=mixed beam	!	!LO:TX:a:t=P:problem=mixed beam	!	!	!	!	!	!	!	!LO:TX:a:t=P:problem=mixed beam
4r	.	8e-/L	.	8e-/L	.	4r	.	4r	.	4r	4r	8e-/L
.	.	8ee-\	.	8ee-\	.	.	.	.	.	.	.	8ee-\
4E-\	.	8ee-\	.	8ee-\	.	4E-\	n(on)	4b-\	non	4g\	4b-\	8ee-\
.	.	8ee-\J	.	8ee-\J	.	.	.	.	.	.	.	8ee-\J
!	!	!	!	!	!	!LO:SIC:s=2A-	!	!	!	!	!	!
2A-\	5 3	8ee-\L	.	8ee-\L	.	2F\	n(on)	2cc\	non	2a-\	2cc\	8ee-\L
.	.	8ee-\	.	8ee-\	.	.	.	.	.	.	.	8ee-\
.	.	8ee-\	.	8ee-\	.	.	.	.	.	.	.	8ee-\
.	.	8ee-\J	.	8ee-\J	.	.	.	.	.	.	.	8ee-\J
=66	=66	=66	=66	=66	=66	=66	=66	=66	=66	=66	=66	=66
2G\	X 6	8ee-\L	.	8ee-\L	.	2G\	non	2b-\	non	2g\	2b-\	8ee-\L
.	.	8ee-\	.	8ee-\	.	.	.	.	.	.	.	8ee-\
.	.	8ee-\	.	8ee-\	.	.	.	.	.	.	.	8ee-\
.	.	8ee-\J	.	8ee-\J	.	.	.	.	.	.	.	8ee-\J
2A-\	.	8ee-\L	.	8ee-\L	.	2A-\	ha-	2cc\	ha-	2a-\	2cc\	8ee-\L
.	.	8ee-\	.	8ee-\	.	.	.	.	.	.	.	8ee-\
.	.	8ee-\	.	8ee-\	.	.	.	.	.	.	.	8ee-\
.	.	8ee-\J	.	8ee-\J	.	.	.	.	.	.	.	8ee-\J
=67	=67	=67	=67	=67	=67	=67	=67	=67	=67	=67	=67	=67
!	!	!LO:TX:a:t=P:problem=mixed beam	!	!LO:TX:a:t=P:problem=mixed beam	!	!	!	!	!	!	!	!LO:TX:a:t=P:problem=mixed beam
2G\	X 6	8ee-\L	.	8ee-\L	.	2G\	-be-	(>4b-\	-be-	2g\	2b-\	8ee-\L
.	.	8e-/	.	8e-/	.	.	.	.	.	.	.	8e-/
.	.	8e-/	.	8e-/	.	.	.	4g\)	.	.	.	8e-/
.	.	8e-/J	.	8e-/J	.	.	.	.	.	.	.	8e-/J
!	!	!	!	!LO:LB:g=original	!	!	!	!	!	!	!	!
2E-\	.	8e-/L	.	8e-/L	.	2E-\	-mus	2e-/	-mus	2g\	2b-\	8ee-\L
.	.	8e-/	.	8e-/	.	.	.	.	.	.	.	8ee-\
.	.	8e-/	.	8e-/	.	.	.	.	.	.	.	8ee-\
!	!	!LO:TX:b:i:t=Vertatur citiſsimae	!	!	!	!	!	!	!	!	!	!
.	.	8e-/J	.	8e-/J	.	.	.	.	.	.	.	8ee-\J
!	!	!LO:PB:g=original	!	!	!	!LO:LB:g=original	!	!LO:LB:g=original	!	!	!	!
=68	=68	=68	=68	=68	=68	=68	=68	=68	=68	=68	=68	=68
4A-\	.	4cc\	.	4ff\	.	4A-\	Ni-	4ff\	ni-	4f\	4a-\	4ff\
4A-\	.	4cc\	.	4ee-\	.	4A-\	-si	4ee-\	-si	4e-\	4g\	4ee-\
!	!	!	!	!	!	!LO:SIC:l:s=Cæ	!	!	!	!	!	!
4B-\	.	4f/	.	4dd\	.	4B-\	Ceo-	4dd\	Ce-	4B-/	4f\	4dd\
4BB-/	.	4b-/	.	4ff\	.	4BB-/	-sa-	4cc\	-sa-	4B-/	4f\	4ff\
!LO:LB:g=original	!	!	!	!	!	!	!	!	!	!	!	!LO:LB:g=original
=69	=69	=69	=69	=69	=69	=69	=69	=69	=69	=69	=69	=69
4E-\	.	4g/	.	4ee-\	.	4E-\	-rem	4ee-\	-rem	4e-\	4g\	4ee-\
8G\L	.	8g/L	.	8g/L	.	4r	.	4r	.	4r	4r	8g/L
8A-\J	.	8a-/J	.	8a-/J	.	.	.	.	.	.	.	8a-/J
4B-\	.	4b-/	.	4b-/	.	2r	.	2r	.	2r	2rg	4b-\
4BB-/	.	4B-/	.	4B-/	.	.	.	.	.	.	.	4bb-\
=70	=70	=70	=70	=70	=70	=70	=70	=70	=70	=70	=70	=70
4E-\	.	2e-/	.	2e-/	.	2G\	Quid	2b-\	Quid	2g\	2b-\	2ee-\
4r	.	.	.	.	.	.	.	.	.	.	.	.
2r	.	2rg	.	2rg	.	(>8G\L	er-	(>8b-\L	er-	8g\L	8b-\L	2r
.	.	.	.	.	.	8F\J)	.	8a-\J)	.	8f\	8a-\	.
.	.	.	.	.	.	(>8E-\L	-go	(>8g\L	-go	8e-\	8g\	.
.	.	.	.	.	.	8F\J)	.	8a-\J)	.	8f\J	8b-\J	.
=71	=71	=71	=71	=71	=71	=71	=71	=71	=71	=71	=71	=71
!LO:N:vis=0	!	!	!	!	!	!	!	!	!	!	!	!
0r	.	2e-/	.	4e-/	.	(>4G\	uul-	(>4b-\	uul-	4g\	4b-\	4ee-\
.	.	.	.	4r	.	4A-\)	.	4cc\)	.	4a-\	4cc\	4r
.	.	2r	.	2rg	.	2G\	-tis	2b-\	-tiſ	2g\	2b-\	2r
!	!	!	!	!	!	!	!	!	!	!LO:LB:g=original	!LO:LB:g=original	!
=72	=72	=72	=72	=72	=72	=72	=72	=72	=72	=72	=72	=72
.	.	2B-/	.	2B-/	.	2F\	fa-	2a-\	fa-	2f\	2a-\	2bb-\
.	.	2r	.	2r	.	4F\	-ci-	4a-\	-ci-	4f\	4a-\	2r
.	.	.	.	.	.	4F\	-am	4a-\	-am	4f\	4a-\	.
=73	=73	=73	=73	=73	=73	=73	=73	=73	=73	=73	=73	=73
1r	.	2B-/	.	2B-/	.	2F\	e-	2a-\	e-	2f\	2a-\	2bb-\
.	.	2e-/	.	2e-/	.	2E-\	-[[i]]	2g\	-i	2e-\	2g\	2ee-\
!	!	!LO:LB:g=original	!	!LO:LB:g=original	!	!LO:PB:g=original	!	!LO:LB:g=original	!	!	!	!
=74	=74	=74	=74	=74	=74	=74	=74	=74	=74	=74	=74	=74
!	!	!	!	!	!	!LO:TX:a:t=2i:(=21):problem	!	!LO:TX:a:t=21	!	!	!	!
!	!	!	!	!	!	!LO:N:vis=00	!	!LO:N:vis=00	!	!LO:N:vis=00	!LO:N:vis=00	!
4E-\	.	2g/	.	2ee-\	.	00r	.	00r	.	00r	00r	2ee-\
4E-\	.	.	.	.	.	.	.	.	.	.	.	.
4E-\	.	2g/	.	2b-\	.	.	.	.	.	.	.	2b-\
4E-\	.	.	.	.	.	.	.	.	.	.	.	.
=75	=75	=75	=75	=75	=75	=75	=75	=75	=75	=75	=75	=75
4E-\	.	4e-/	.	4g/	.	.	.	.	.	.	.	4g/
4E-\	.	4g/	.	4b-/	.	.	.	.	.	.	.	4b-/
4E-\	.	4e-/	.	4g/	.	.	.	.	.	.	.	4g/
4E-\	.	4B-/	.	4e-/	.	.	.	.	.	.	.	4e-/
=76	=76	=76	=76	=76	=76	=76	=76	=76	=76	=76	=76	=76
4BB-/	7_ 5_	4f/	.	4a-/	.	.	.	.	.	.	.	4a-/
4BB-/	.	4d/	.	4f/	.	.	.	.	.	.	.	4f/
4BB-/	.	2B-/	.	2d/	.	.	.	.	.	.	.	2d/
4BB-/	x	.	.	.	.	.	.	.	.	.	.	.
=77	=77	=77	=77	=77	=77	=77	=77	=77	=77	=77	=77	=77
4E-\	.	2G/	.	2e-/	.	.	.	.	.	.	.	2e-/
4E-\	.	.	.	.	.	.	.	.	.	.	.	.
4A-\	X 3	2e-/	.	2cc\	.	.	.	.	.	.	.	2cc\
4A-\	.	.	.	.	.	.	.	.	.	.	.	.
!LO:LB:g=original	!	!	!	!	!	!	!	!	!	!	!	!
=78-	=78	=78	=78	=78	=78	=78	=78	=78	=78	=78	=78	=78
!	!	!	!	!	!	!LO:N:vis=00	!	!LO:N:vis=00	!	!LO:N:vis=00	!LO:N:vis=00	!
4G\	X 6_	2.e-/	.	2.b-\	.	00r	.	00r	.	00r	00r	2.b-\
4G\	.	.	.	.	.	.	.	.	.	.	.	.
4F\	xX 6_	.	.	.	.	.	.	.	.	.	.	.
4F\	.	4f/	.	4a-\	.	.	.	.	.	.	.	4a-\
=79	=79	=79	=79	=79	=79	=79	=79	=79	=79	=79	=79	=79
4E-\	x	4e-/	.	4g/	.	.	.	.	.	.	.	4g/
4E-\	.	4g/	.	4b-/	.	.	.	.	.	.	.	4b-/
4E-\	.	4e-/	.	4g/	.	.	.	.	.	.	.	4g/
4E-\	.	4B-/	.	4e-/	.	.	.	.	.	.	.	4e-/
=80	=80	=80	=80	=80	=80	=80	=80	=80	=80	=80	=80	=80
4BB-/	X 7	4f/	.	4a-/	.	.	.	.	.	.	.	4a-/
.	X 5	.	.	.	.	.	.	.	.	.	.	.
4BB-/	.	4d/	.	4f/	.	.	.	.	.	.	.	4f/
4BB-/	.	2B-/	.	2d/	.	.	.	.	.	.	.	2d/
4BB-/	.	.	.	.	.	.	.	.	.	.	.	.
!	!	!LO:LB:g=original	!	!LO:LB:g=original	!	!	!	!	!	!	!	!LO:LB:g=original
=81	=81	=81	=81	=81	=81	=81	=81	=81	=81	=81	=81	=81
4E-\	.	2.G/	.	2.e-/	.	.	.	.	.	.	.	2.e-/
8E-\L	.	.	.	.	.	.	.	.	.	.	.	.
8D\J	.	.	.	.	.	.	.	.	.	.	.	.
8E-\L	.	.	.	.	.	.	.	.	.	.	.	.
8E-\J	.	.	.	.	.	.	.	.	.	.	.	.
4E-\	.	4b-\	.	4gg\	.	.	.	.	.	.	.	4gg\
=82	=82	=82	=82	=82	=82	=82	=82	=82	=82	=82	=82	=82
!	!	!	!	!	!	!LO:N:vis=00	!	!LO:N:vis=00	!	!LO:N:vis=00	!LO:N:vis=00	!
4D/	.	2b-\	.	2ff\	.	00r	.	00r	.	00r	00r	2ff\
4D/	.	.	.	.	.	.	.	.	.	.	.	.
4BB-/	.	2d/	.	2b-/	.	.	.	.	.	.	.	2b-\
4BB-/	.	.	.	.	.	.	.	.	.	.	.	.
=83	=83	=83	=83	=83	=83	=83	=83	=83	=83	=83	=83	=83
4C/	6 4	4cc\	.	4ee-\	.	.	.	.	.	.	.	4ee-\
4C/	.	4an/	.	4cc\	.	.	.	.	.	.	.	4cc\
4FF/	X n	2f/	.	2an/	.	.	.	.	.	.	.	2an\
4FF/	.	.	.	.	.	.	.	.	.	.	.	.
!LO:LB:g=original	!	!	!	!	!	!	!	!	!	!	!	!
=84	=84	=84	=84	=84	=84	=84	=84	=84	=84	=84	=84	=84
4BB-/	.	2d/	.	2b-\	.	.	.	.	.	.	.	2b-\
4BB-/	.	.	.	.	.	.	.	.	.	.	.	.
4E-/	.	2b-\	.	2gg\	.	.	.	.	.	.	.	2gg\
4E-/	.	.	.	.	.	.	.	.	.	.	.	.
=85	=85	=85	=85	=85	=85	=85	=85	=85	=85	=85	=85	=85
4D\	X 6	2.b-\	.	2.ffT>\	.	.	.	.	.	.	.	2.ff\
4D\	.	.	.	.	.	.	.	.	.	.	.	.
4D\	.	.	.	.	.	.	.	.	.	.	.	.
!	!	!	!	!LO:SIC:o=8ee-	!	!	!	!	!	!	!	!
4FF/	X -7	4an\	.	4ee-\	.	.	.	.	.	.	.	4ee-\
=86	=86	=86	=86	=86	=86	=86	=86	=86	=86	=86	=86	=86
!	!	!	!	!	!	!LO:N:vis=00	!	!LO:N:vis=00	!	!LO:N:vis=00	!LO:N:vis=00	!
4BB-/	.	4b-\	.	4dd\	.	00r	.	00r	.	00r	00r	4dd\
4BB-/	.	4dd\	.	4ff\	.	.	.	.	.	.	.	4ff\
4BB-/	.	4b-\	.	4dd\	.	.	.	.	.	.	.	4dd\
4BB-/	.	4f/	.	4b-\	.	.	.	.	.	.	.	4b-\
=87	=87	=87	=87	=87	=87	=87	=87	=87	=87	=87	=87	=87
4FF/	7 n	4cc\	.	4ee-\	.	.	.	.	.	.	.	4ee-\
4FF/	.	4an/	.	4cc\	.	.	.	.	.	.	.	4cc\
4FF/	.	2f/	.	2an/	.	.	.	.	.	.	.	2an\
4FF/	.	.	.	.	.	.	.	.	.	.	.	.
!	!	!LO:LB:g=original	!	!LO:LB:g=original	!	!	!	!	!	!	!	!
=88	=88	=88	=88	=88	=88	=88	=88	=88	=88	=88	=88	=88
!	!	!	!	!LO:TX:a:t=P:problem=kolejność bemoli&colon; b-, a-, ee-	!	!	!	!	!	!	!	!
4BB-/	.	2.d/	.	2.b-/	.	.	.	.	.	.	.	2.b-\
4BB-/	.	.	.	.	.	.	.	.	.	.	.	.
4E-\	.	.	.	.	.	.	.	.	.	.	.	.
4A-X\	.	4e-/	.	4cc/	.	.	.	.	.	.	.	4cc\
=89	=89	=89	=89	=89	=89	=89	=89	=89	=89	=89	=89	=89
4G\	.	2e-/	.	4b-/	.	.	.	.	.	.	.	4b-\
4G\	.	.	.	4g/	.	.	.	.	.	.	.	4g/
4E-\	.	2B-/	.	2e-/	.	.	.	.	.	.	.	2e-/
4E-\	.	.	.	.	.	.	.	.	.	.	.	.
=90	=90	=90	=90	=90	=90	=90	=90	=90	=90	=90	=90	=90
!	!	!	!	!	!	!LO:N:vis=00	!	!LO:N:vis=00	!	!LO:N:vis=00	!LO:N:vis=00	!
4F/	.	4f/	.	4a-/	.	00r	.	00r	.	00r	00r	4a-/
4BB-/	.	4d/	.	4f/	.	.	.	.	.	.	.	4f/
4BB-/	.	2B-/	.	2d/	.	.	.	.	.	.	.	2d/
4BB-/	.	.	.	.	.	.	.	.	.	.	.	.
=91	=91	=91	=91	=91	=91	=91	=91	=91	=91	=91	=91	=91
4E-\	.	2G/	.	2e-/	.	.	.	.	.	.	.	2e-/
4E-\	.	.	.	.	.	.	.	.	.	.	.	.
4A-\	.	2e-/	.	2cc\	.	.	.	.	.	.	.	2cc\
4A-\	.	.	.	.	.	.	.	.	.	.	.	.
!LO:PB:g=original	!	!	!	!	!	!	!	!	!	!	!	!
=92-	=92-	=92	=92	=92	=92	=92	=92	=92	=92	=92	=92	=92
.	.	.	.	8qqcc/	.	.	.	.	.	.	.	.
4G\	X 6_	2.e-/	.	2.b-\	.	.	.	.	.	.	.	2.b-\
4G\	.	.	.	.	.	.	.	.	.	.	.	.
4G\	.	.	.	.	.	.	.	.	.	.	.	.
4BB-/	x	4d/	.	4a-\	.	.	.	.	.	.	.	4a-\
!	!	!	!	!	!	!	!	!	!	!	!	!LO:LB:g=original
=93	=93	=93	=93	=93	=93	=93	=93	=93	=93	=93	=93	=93
4E-\	.	4e-/	.	4g/	.	.	.	.	.	.	.	4g/
4E-\	.	4g/	.	4b-/	.	.	.	.	.	.	.	4b-/
4E-\	.	4e-/	.	4g/	.	.	.	.	.	.	.	4g/
4E-\	.	4B-/	.	4e-/	.	.	.	.	.	.	.	4e-/
!	!	!	!	!LO:LB:g=original	!	!	!	!	!	!	!	!
=94	=94	=94	=94	=94	=94	=94	=94	=94	=94	=94	=94	=94
4BB-/	.	4f/	.	4a-/	.	1r	.	1r	.	1r	1r	4a-/
4A-\	6 4	4d/	.	4f/	.	.	.	.	.	.	.	4f/
!	!	!	!	!LO:TX:a:t=94.	!	!	!	!	!	!	!	!LO:TX:a:t=93.:problem=powinno być 94 uwzględniając pominięty takt
4B-\	.	2B-/	.	2d/	.	.	.	.	.	.	.	2d/
!LO:TX:a:t=94.	!	!	!	!	!	!	!	!	!	!	!	!
4BB-/	.	.	.	.	.	.	.	.	.	.	.	.
!	!	!LO:LB:g=original	!	!	!	!	!	!	!	!	!	!
=95	=95	=95||	=95||	=95	=95	=95	=95	=95	=95	=95||	=95||	=95
*M3/4	*	*M3/4	*	*M3/4	*	*M3/4	*	*M3/4	*	*M3/4	*M3/4	*M3/4
!LO:TX:i:b:t=Tolle	!	!	!	!LO:TX:a:t=P:problem=mixed beam	!	!	!	!	!	!LO:TX:b:i:t=Tolle	!	!LO:TX:a:t=P:problem=mixed beam
!LO:TX:a:i:t=Tutti	!	!LO:TX:a:t=P:problem=mixed beam	!	!LO:TX:i:a:t=Tutti	!	!	!	!LO:TX:i:a:t=Tutti	!	!	!	!LO:TX:a:i:t=Tutti
4E-\	.	8G/L	.	8e-/L	.	4r	.	4r	.	4r	4r	8e-/L
.	.	8ee-\	.	8ee-\	.	.	.	.	.	.	.	8ee-\J
!	!	!	!	!	!	!	!	!	!	!LO:TX:i:a:t=Tutti	!	!
4G\	X 6_	8ee-\	.	8ee-\	.	4E-\	Tol-	4b-\	Tol-	4g\	4b-\	8ee-\L
.	.	8ee-\	.	8ee-\	.	.	.	.	.	.	.	8ee-\
4G\	.	8ee-\	.	8ee-\	.	4E-\	-le	4b-\	-le	4g\	4b-\	8ee-\
.	x	8ee-\J	.	8ee-\J	.	.	.	.	.	.	.	8ee-\J
=96	=96	=96	=96	=96	=96	=96	=96	=96	=96	=96	=96	=96
!	!	!LO:TX:a:t=P:problem=mixed beam	!	!LO:TX:a:t=P:problem=mixed beam	!	!	!	!	!	!LO:TX:a:t=P:problem= takt dopisany nad pięciolinią	!	!LO:TX:a:t=P:problem=mixed beam
*	*	*	*	*	*	*	*ij	*	*	*	*	*
8A-\L	X 5	8ee-\L	.	8ee-\L	.	8A-\L	Tol-	(>8cc\L	tol-	4e-\	8cc\L	8ee-\L
8G\J	X 6_	8ee-\	.	8ee-\	.	8E-\J	.	8b-\J)	.	.	8b-\J	8ee-\
4G\	.	8ee-\	.	8ee-\	.	4E-\	-le	2b-\	-le	4e-\	2b-\	8ee-\
*	*	*	*	*	*	*	*Xij	*	*	*	*	*
.	.	8e-/	.	8e-/	.	.	.	.	.	.	.	8e-/
4E-\	.	8ee-\	.	8ee-\	.	4r	.	.	.	4e-\	.	8ee-\
.	x	8ee-\J	.	8ee-\J	.	.	.	.	.	.	.	8ee-\J
=97	=97	=97	=97	=97	=97	=97	=97	=97	=97	=97	=97	=97
!	!	!LO:TX:a:t=P:problem=mixed beam	!	!LO:TX:a:t=P:problem=mixed beam	!	!	!	!	!	!	!	!LO:TX:a:t=P:problem=mixed beam
4r	.	8B-/L	.	8B-/L	.	4r	.	4r	.	4r	4r	8b-/L
.	.	8dd\	.	8ff\	.	.	.	.	.	.	.	8ff\
4BB-/	X 7	8ff\	.	8aa-\	.	4B-\	Cru-	(>8aa-\L	Cru-	8f\L	(>8a-\L	8aa-\
.	X 6	8ee-\	.	8gg\	.	.	.	8gg\J)	.	8e-\	8g\)	8gg\
4BB-/	X 5	8dd\	.	8ff\	.	4B-\	-ci-	(>8ff\L	-ci-	8f\	(>8a-\	8ff\
.	X 4	8cc\J	.	8ee-\J	.	.	.	8ee-\J)	.	8d\J	8g\J)	8ee-\J
=98	=98	=98	=98	=98	=98	=98	=98	=98	=98	=98	=98	=98
4BB-/	.	8dd\L	.	8ff\L	.	8B-\	-fi-	8dd\	-fi-	8B-/L	8f\L	8ff\L
.	.	8dd\	.	8ff\	.	8B-\	-ge	8ee-\	-ge	8G/J	8e-\J	8ff\
4BB-/	.	8b-\	.	8dd\	.	4B-\	e-	4ff\	E-	4B-/	4f\	8dd\
.	.	8ff\	.	8b-\J	.	.	.	.	.	.	.	8b-\J
4BB-/	.	8bb-\	.	8bb-\L	.	4BB-/	-um	4b-\	-um	4B-/	4f\	8bb-\L
.	.	8ff\J	.	8ff\J	.	.	.	.	.	.	.	8ff\J
!LO:LB:g=original	!	!	!	!	!	!	!	!	!	!	!LO:LB:g=original	!
=99	=99	=99	=99	=99	=99	=99	=99	=99	=99	=99	=99	=99
!	!	!	!	!	!	!	!	!LO:TX:a:t=7	!	!	!	!
!	!	!	!	!	!	!LO:N:vis=00	!	!LO:N:vis=00	!	!	!	!
4E-\	.	8b-\L	.	8b-\L	.	0.r	.	0.r	.	8r	8r	8b-\L
.	.	8ee-\	.	8gg\	.	.	.	.	.	8g\L	8b-\L	8gg\J
8r	.	8ee-\	.	8gg\	.	.	.	.	.	8g\	8b-\	8gg\L
8E-\L	X 6	8ee-\	.	8gg\	.	.	.	.	.	8g\	8b-\	8gg\
8G\	.	8ee-\	.	8gg\	.	.	.	.	.	8g\	8b-\	8gg\
8E-\J	.	8ee-\J	.	8gg\J	.	.	.	.	.	8g\J	8b-\J	8gg\J
!	!	!	!	!LO:LB:g=original	!	!	!	!	!	!	!	!
=100	=100	=100	=100	=100	=100	=100	=100	=100	=100	=100	=100	=100
!	!	!LO:TX:a:t=P:problem=mixed beam	!	!	!	!	!	!	!	!LO:TX:a:t=P:problem=mixed beam	!	!
4E-\	.	8ee-\L	.	(>8gg\L	.	.	.	.	.	8g\L	(>8b-\L	8gg\L
.	.	8d/	.	8ff\)	.	.	.	.	.	8f\	8a-\)	8ff\
!	!	!	!	!	!	!	!	!	!	!LO:TX:a:t=P:problem= nietypowy zapis łuku	!	!
4r	.	8d/	.	(>8ff\	.	.	.	.	.	(>8f\	(>8a-\	8ff\
.	.	8B-/	.	8ee-\)	.	.	.	.	.	8e-\	8g\)	8ee-\
4r	.	8B-/	.	(>8ee-\	.	.	.	.	.	8e-\)	(>8g\	8ee-\
!	!	!LO:SIC:s=8d	!	!	!	!	!	!	!	!	!	!
.	.	8c/J	.	8dd\J)	.	.	.	.	.	8B-/J	8f\J)	8dd\J
!	!	!LO:LB:g=original	!	!	!	!	!	!	!	!LO:LB:g=original	!	!LO:LB:g=original
=101	=101	=101	=101	=101	=101	=101	=101	=101	=101	=101	=101	=101
!	!	!	!	!LO:TX:a:t=P:problem=mixed beam	!	!	!	!	!	!	!	!LO:TX:a:t=P:problem=mixed beam
4r	.	8B-/L	.	8ee-\L	.	.	.	.	.	8e-\L	(>8g\L	8ee-\L
.	.	8d/	.	8f/	.	.	.	.	.	8B-\	8f\)	8f/
4BB-/	X 6	8e-/	.	8g/	.	.	.	.	.	8e-\	(>8g\	8g/
.	X 7	8f/	.	8a-/	.	.	.	.	.	8g\	8a-\)	8a-/
4BB-/	X 6	8e-/	.	8g/	.	.	.	.	.	8e-\	(>8g\	8g/
.	X 5	8d/J	.	8f/J	.	.	.	.	.	8B-\J	8f\J)	8f/J
=102	=102	=102	=102	=102	=102	=102	=102	=102	=102	=102	=102	=102
!	!	!LO:TX:a:t=P:problem=mixed beam	!	!LO:TX:a:t=P:problem=mixed beam	!	!	!	!	!	!LO:TX:a:t=P:problem=mixed beam	!	!LO:TX:a:t=P:problem=mixed beam
4E-\	.	8e-/L	.	8g/L	.	.	.	.	.	8e-\L	(>8g\L	8g/L
.	.	8gg\	.	8bb-\	.	.	.	.	.	8g\	(>8b-\)	8bb-\
!	!	!	!	!	!	!	!	!	!	!	!LO:TX:a:t=P:problem= dwa łuki zapisane jako falista linia, interpretacja niepewna	!
4r	.	8ff\	.	8aa-\	.	.	.	.	.	8f\	(>8a-\)	8aa-\
.	.	8ee-\	.	8gg\	.	.	.	.	.	8e-\	(>8g\)	8gg\
4r	.	8ff\	.	8aa-\	.	.	.	.	.	8f\	8a-\)	8aa-\
.	.	8dd\J	.	8ff\J	.	.	.	.	.	8B-/J	8f\J	8ff\J
=103	=103	=103	=103	=103	=103	=103	=103	=103	=103	=103	=103	=103
!	!	!LO:TX:a:t=P:problem=mixed beam	!	!LO:TX:a:t=P:problem=mixed beam	!	!	!	!	!	!	!	!LO:TX:a:t=P:problem=mixed beam
!	!	!	!	!	!	!LO:N:vis=0	!	!LO:N:vis=0	!	!	!	!
8BB-/L	5 3	8ee-\L	.	8gg\L	.	1.r	.	1.r	.	8e-\L	8g\L	8gg\L
8BB-/	.	8d/	.	8f/	.	.	.	.	.	8f\	8a-\	8f/J
8BB-/	.	8d/	.	8f/	.	.	.	.	.	8f\	8a-\	8f/L
8BB-/	.	8d/	.	8f/	.	.	.	.	.	8f\	8a-\	8f/
8BB-/	.	8d/	.	8f/	.	.	.	.	.	8f\	8a-\J	8f/
!	!	!	!	!	!	!	!	!	!	!	!LO:TX:a:t=P:problem= brak jednej wartości	!
8BB-/J	.	8d/J	.	8f/J	.	.	.	.	.	8f\J	8ryy	8f/J
=104	=104	=104	=104	=104	=104	=104	=104	=104	=104	=104	=104	=104
4E-\	.	4e-/	.	4g/	.	.	.	.	.	4e-\	4g\	4g/
8r	.	8r	.	8r	.	.	.	.	.	8r	8r	8r
!LO:TX:a:t=P:problem=mixed beam	!	!	!	!	!	!	!	!	!	!	!	!
8BB-/L	.	8dd\L	.	8ff\L	.	.	.	.	.	8f\L	8b-\L	8ff\L
8B-\	.	8dd\	.	8ff\	.	.	.	.	.	8f\	8b-\	8ff\
8BB-/J	.	8dd\J	.	8ff\J	.	.	.	.	.	8f\J	8b-\J	8ff\J
=105	=105	=105	=105	=105	=105	=105	=105	=105	=105	=105	=105	=105
!LO:TX:a:t=11.	!	!	!	!	!	!	!	!	!	!	!	!
2.E-;>\	.	2ee-\	.	4gg\	.	2.r	.	2.r	.	2.g\	2b-\	4gg\
!	!	!	!	!LO:TX:a:t=11.	!	!	!	!	!	!	!	!
.	.	.	.	4r	.	.	.	.	.	.	.	4r
!	!	!	!	!	!	!	!	!	!	!	!	!LO:TX:a:t=11.
!	!	!	!	!LO:TX:i:a:t=Solo	!	!	!	!	!	!	!	!LO:TX:a:t=P:problem= kreska z obustronną repetycją
.	.	4r	.	4r	.	.	.	.	.	.	4r	4r
!LO:TX:a:i:t=Solo	!	!	!	!	!	!	!	!	!	!	!	!
!LO:LB:g=original	!	!LO:LB:g=original	!	!LO:LB:g=original	!	!LO:LB:g=original	!	!LO:LB:g=original	!	!	!LO:LB:g=original	!LO:LB:g=original
=106||	=106||	=106||	=106||	=106||	=106||	=106||	=106||	=106||	=106||	=106||	=106||	=106||
*M4/4	*	*M4/4	*	*M4/4	*	*M4/4	*	*M4/4	*	*M4/4	*M4/4	*M4/4
*met(C.)	*	*met(C.)	*	*met(C.)	*	*met(C.)	*	*met(C.)	*	*met(C.)	*met(C.)	*met(C.)
*	*	*	*	*	*	*	*	*	*	*	*	*Xtuplet
!	!	!	!	!LO:SIC:o=8.cc	!	!	!	!	!	!	!	!
!LO:TX:b:i:t=Et crucifixerunt	!	!	!	!LO:TX:a:t=P:problem=do końca partii kolejność bemoli&colon; a-, b-, ee-	!	!	!	!	!	!LO:TX:a:t=19	!	!
!LO:TX:i:a:t=Solo Lentiſsimae	!	!	!	!LO:TX:a:i:t=Lentiſsimae	!	!	!	!LO:TX:i:a:t=Solo	!	!LO:TX:b:i:t=Et Crucifixerunt	!	!
!	!	!	!	!	!	!LO:TX:b:i:t=Lentiſsimæ	!	!LO:TX:i:a:t=Lentiſsimae	!	!	!	!
!	!	!	!	!	!	!LO:N:vis=00	!	!LO:N:vis=00	!	!LO:N:vis=00	!LO:N:vis=00	!
8C/L	.	4.e-/	.	4.cc\	.	00r	.	00r	.	00r	00r	4.cc\
8C/	.	.	.	.	.	.	.	.	.	.	.	.
8C/	.	.	.	.	.	.	.	.	.	.	.	.
*	*	*Xtuplet	*	*Xtuplet	*	*	*	*	*	*	*	*
8C/J	.	24g/LL	.	24ee-\LL	.	.	.	.	.	.	.	24ee-\LL
.	.	24f/	.	24dd\	.	.	.	.	.	.	.	24dd\
.	.	24e-/JJ	.	24cc\JJ	.	.	.	.	.	.	.	24cc\JJ
4C/	.	16ee-\LL	.	16gg\LL	.	.	.	.	.	.	.	16gg\LL
.	.	16cc\	.	16ee-\	.	.	.	.	.	.	.	16ee-\
.	.	16bn\	.	16dd\	.	.	.	.	.	.	.	16dd\
.	.	16cc\JJ	.	16cc\JJ	.	.	.	.	.	.	.	16cc\JJ
8r	.	16bn\LL	.	16dd\LL	.	.	.	.	.	.	.	16dd\LL
.	.	16g\	.	16g\	.	.	.	.	.	.	.	16g\
8GG/	.	16dd\	.	16ff\	.	.	.	.	.	.	.	16ff\
.	.	16b\JJ	.	16dd\JJ	.	.	.	.	.	.	.	16dd\JJ
=107	=107	=107	=107	=107	=107	=107	=107	=107	=107	=107	=107	=107
4C/	.	16g/LL	.	16ee-\LL	.	.	.	.	.	.	.	16ee-\LL
.	.	16f/	.	16dd\	.	.	.	.	.	.	.	16dd\
.	.	16e-/	.	16cc\	.	.	.	.	.	.	.	16cc\
.	.	16g/JJ	.	16ee-\JJ	.	.	.	.	.	.	.	16ee-\JJ
4FF/	.	8f/L	.	8dd\L	.	.	.	.	.	.	.	8dd\L
.	.	8e-/J	.	8cc\J	.	.	.	.	.	.	.	8cc\J
8GG/L	.	16d/LL	.	16bn\LL	.	.	.	.	.	.	.	16bn\LL
.	.	16d/	.	16b\	.	.	.	.	.	.	.	16b\
8GG/	X n	16f/	.	16b\	.	.	.	.	.	.	.	16b\
.	.	16d/JJ	.	16b\JJ	.	.	.	.	.	.	.	16b\JJ
8GG/	.	16d/LL	.	16b\LL	.	.	.	.	.	.	.	16b\LL
.	.	16d/	.	16b\	.	.	.	.	.	.	.	16b\
8GG/J	.	16f/	.	16b\	.	.	.	.	.	.	.	16b\
.	.	16d/JJ	.	16b\JJ	.	.	.	.	.	.	.	16b\JJ
=108	=108	=108	=108	=108	=108	=108	=108	=108	=108	=108	=108	=108
*	*	*tuplet	*	*tuplet	*	*	*	*	*	*	*	*
!	!	!LO:TUP:b:problem=klamra łukowa	!	!LO:TUP:a:problem=klamra łukowa	!	!	!	!	!	!	!	!
4GG/	.	24d/LL	.	24bn\LL	.	.	.	.	.	.	.	24bn\LL
.	.	24e-/	.	24cc\	.	.	.	.	.	.	.	24cc\
.	.	24f/JJ	.	24dd\JJ	.	.	.	.	.	.	.	24dd\JJ
!	!	!LO:TUP:b:problem=klamra łukowa	!	!LO:TUP:a:problem=klamra łukowa	!	!	!	!	!	!	!	!
.	.	24f/LL	.	24dd\LL	.	.	.	.	.	.	.	24dd\LL
.	.	24e-/	.	24cc\	.	.	.	.	.	.	.	24cc\
.	.	24d/JJ	.	24b\JJ	.	.	.	.	.	.	.	24b\JJ
*	*	*Xtuplet	*	*Xtuplet	*	*	*	*	*	*	*	*
16c\LL	.	16e-/LL	.	16cc/LL	.	.	.	.	.	.	.	16cc/LL
16G\	.	16g/	.	16g/	.	.	.	.	.	.	.	16g/
16E-\	.	16e-/	.	16e-/	.	.	.	.	.	.	.	16e-/
16C\JJ	.	16c/JJ	.	16c/JJ	.	.	.	.	.	.	.	16cc/JJ
!	!	!LO:LB:g=original	!	!LO:LB:g=original	!	!	!	!	!	!	!	!
!	!	!	!	!LO:TX:a:t=P:problem=tryl przedłużony	!	!	!	!	!	!	!	!
8r	.	4.ee-T>\	.	4.ggtt>\	.	.	.	.	.	.	.	4.gg\
8C/L	.	.	.	.	.	.	.	.	.	.	.	.
8C/	.	.	.	.	.	.	.	.	.	.	.	.
8C/J	.	24e-/LL	.	24cc\LL	.	.	.	.	.	.	.	24cc\LL
.	.	24f/	.	24dd\	.	.	.	.	.	.	.	24dd\
.	.	24e-/JJ	.	24cc\JJ	.	.	.	.	.	.	.	24cc\JJ
!	!	!	!	!	!	!	!	!	!	!	!	!LO:LB:g=original
=109	=109	=109	=109	=109	=109	=109	=109	=109	=109	=109	=109	=109
!	!	!LO:TX:a:t=P:problem=mixed beam	!	!	!	!	!	!	!	!	!	!
8C/L	.	16ee-\LL	.	16gg\LL	.	.	.	.	.	.	.	16gg\LL
.	.	16e-/	.	16cc\	.	.	.	.	.	.	.	16cc\
8C/	.	16f/	.	16dd\	.	.	.	.	.	.	.	16dd\
.	.	16e-/JJ	.	16cc\JJ	.	.	.	.	.	.	.	16cc\JJ
8C/	.	16b-X/LL	.	16gg\LL	.	.	.	.	.	.	.	16gg\LL
.	.	(<16g/	.	(>16een\	.	.	.	.	.	.	.	16een\
8C/J	.	16a-/)	.	16dd\)	.	.	.	.	.	.	.	16dd\
!	!	!	!	!LO:TX:a:t=P:problem=niejasna interpretacja bemola (nad nutą czy nad przednutką?)	!	!	!	!	!	!	!	!
.	.	.	.	8qqdd-X/	.	.	.	.	.	.	.	.
.	.	16g/JJ	.	16cc\JJ	.	.	.	.	.	.	.	16cc\JJ
8C/L	.	8f/	.	24a-/LL	.	.	.	.	.	.	.	24a-/LL
.	.	.	.	24g/	.	.	.	.	.	.	.	24g/
.	.	.	.	24f/JJ	.	.	.	.	.	.	.	24f/JJ
!	!	!	!	!LO:TX:a:t=P:problem=tryl przedłużony	!	!	!	!	!	!	!	!
8C/	.	4g/	.	4eentt>\	.	.	.	.	.	.	.	4een\
8C/	.	.	.	.	.	.	.	.	.	.	.	.
8FF/J	.	8a-/	.	8ff\	.	.	.	.	.	.	.	8ff\
=110	=110	=110	=110	=110	=110	=110	=110	=110	=110	=110	=110	=110
!	!	!	!	!	!	!LO:N:vis=00	!	!LO:N:vis=0	!	!LO:N:vis=00	!LO:N:vis=00	!
8r	.	4.ddt>\	.	4.ff\	.	00r	.	0r	.	00r	00r	4.ff\
8BB-X/L	.	.	.	.	.	.	.	.	.	.	.	.
8BB-/	.	.	.	.	.	.	.	.	.	.	.	.
8BB-/J	.	24d/LL	.	(>24b-X\LL	.	.	.	.	.	.	.	24b-X\LL
.	.	24e-/	.	24cc\	.	.	.	.	.	.	.	24cc\
.	.	24d/JJ	.	24b-\JJ)	.	.	.	.	.	.	.	24b-\JJ
!LO:LB:g=original	!	!	!	!	!	!	!	!	!	!	!	!
!	!	!LO:TX:a:t=P:problem=mixed beam	!	!	!	!	!	!	!	!	!	!
8BB-/L	.	16dd\LL	.	16ff\LL	.	.	.	.	.	.	.	16ff\LL
.	.	16d/	.	16b-\	.	.	.	.	.	.	.	16b-\
8BB-/	.	16f/	.	16cc\	.	.	.	.	.	.	.	16cc\
.	.	16d/JJ	.	16b-\JJ	.	.	.	.	.	.	.	16b-\JJ
8BB-/	.	16a-/LL	.	16ff\LL	.	.	.	.	.	.	.	16ff\LL
.	.	16f/	.	16dd\	.	.	.	.	.	.	.	16dd\
8BB-/J	.	16g/	.	16b-\	.	.	.	.	.	.	.	16b-\
.	.	16f/JJ	.	16a-X\JJ	.	.	.	.	.	.	.	16a-X\JJ
=111	=111	=111	=111	=111	=111	=111	=111	=111	=111	=111	=111	=111
8BB-/L	.	8e-/	.	24g/LL	.	.	.	.	.	.	.	24g/LL
.	.	.	.	24f/	.	.	.	.	.	.	.	24f/
.	.	.	.	24e-/JJ	.	.	.	.	.	.	.	24e-/JJ
8BB-/	.	4f/	.	4ddt>\	.	.	.	.	.	.	.	4dd\
8BB-/	.	.	.	.	.	.	.	.	.	.	.	.
8EE-/J	.	8g/	.	8ee-\	.	.	.	.	.	.	.	8ee-\
!	!	!	!	!LO:LB:g=original	!	!	!	!	!	!	!	!
!	!	!	!	!LO:TX:a:t=P:problem=mixed beam	!	!	!	!	!	!	!	!LO:TX:a:t=P:problem=mixed beam
8C/L	.	8e-/L	.	16c/LL	.	.	.	.	.	.	.	16ccc\LL
.	.	.	.	16cc\	.	.	.	.	.	.	.	16cc/
8C/	.	16f/L	.	16dd\	.	.	.	.	.	.	.	16dd/
.	.	16g/JJ	.	16ee-\JJ	.	.	.	.	.	.	.	16ee-/JJ
8GG/	.	16a-/LL	.	16ff\LL	.	.	.	.	.	.	.	16ff\LL
.	.	16g/	.	16ee-\	.	.	.	.	.	.	.	16ee-\
8CC/J	.	16f/	.	(>32dd\L	.	.	.	.	.	.	.	32dd\L
.	.	.	.	32cc\	.	.	.	.	.	.	.	32cc\
.	.	16e-/JJ	.	32bn\	.	.	.	.	.	.	.	32bn\
.	.	.	.	32cc\JJJ)	.	.	.	.	.	.	.	32cc\JJJ
!	!	!LO:LB:g=original	!	!	!	!	!	!	!	!	!	!
=112	=112	=112	=112	=112	=112	=112	=112	=112	=112	=112	=112	=112
!	!	!LO:TX:a:t=P:problem=mixed beam	!	!	!	!	!	!	!	!	!	!
4GG/	.	16d/LL	.	16bn\LL	.	.	.	1r	.	.	.	16bn\LL
.	.	16ff\	.	16aa-\	.	.	.	.	.	.	.	16aa-\
.	.	16ee-\	.	16gg\	.	.	.	.	.	.	.	16gg\
!	!	!	!	!LO:TX:a:t=P:problem=krzyżyk nad nutą	!	!	!	!	!	!	!	!
.	.	16dd\JJ	.	16ff#X\JJ	.	.	.	.	.	.	.	16ff#X\JJ
!	!	!	!	!	!	!	!	!	!	!	!	!LO:LB:g=original
!	!	!LO:TX:a:t=P:problem=mixed beam	!	!LO:TX:a:t=P:problem=mixed beam	!	!	!	!	!	!	!	!LO:TX:a:t=P:problem=mixed beam
8r	.	16ee-\LL	.	16gg\LL	.	.	.	.	.	.	.	16gg\LL
.	.	16e-/	.	16g/	.	.	.	.	.	.	.	16g/
8GG/	.	16f/	.	16an/	.	.	.	.	.	.	.	16an/
.	.	16d/JJ	.	16bn/JJ	.	.	.	.	.	.	.	16bn/JJ
*	*	*tuplet	*	*	*	*	*	*	*	*	*	*
!	!	!LO:TUP:b:problem=klamra łukowa	!	!	!	!	!	!	!	!	!	!
!LO:TX:a:t=P:problem=mixed beam	!	!	!	!	!	!	!	!	!	!	!	!
8C\L	.	24e-/LL	.	24cc\LL	.	.	.	.	.	.	.	24cc\LL
.	.	24f/	.	24dd\	.	.	.	.	.	.	.	24dd\
.	.	24g/JJ	.	[>24ee-\JJ	.	.	.	.	.	.	.	24ee-\JJ
8F\	.	24g/LL	.	24ee-\LL]	.	.	.	.	.	.	.	24ee-\LL
.	.	24f/	.	24dd\	.	.	.	.	.	.	.	24dd\
.	.	24e-/JJ	.	24cc\JJ	.	.	.	.	.	.	.	24cc\JJ
*	*	*Xtuplet	*	*	*	*	*	*	*	*	*	*
8G\	.	8f/L	.	8dd\L	.	.	.	.	.	.	.	8dd\L
8GG/J	.	8d/J	.	8bn\J	.	.	.	.	.	.	.	8bn\J
=113	=113	=113	=113	=113	=113	=113	=113	=113	=113	=113	=113	=113
!	!	!	!	!LO:TX:a:t=P:problem=mixed beam	!	!	!	!	!	!	!	!LO:TX:a:t=P:problem=mixed beam
8C\L	.	8e-/L	.	8cc\L	.	.	.	4r	.	.	.	8cc\L
8E-\	.	8e-/	.	8e-/	.	.	.	.	.	.	.	8e-/
8F\	.	8f/	.	8f/	.	.	.	8r	.	.	.	8f/
8G\J	.	8g/J	.	8g/J	.	.	.	8g\	Et	.	.	8g/J
!	!	!	!	!	!	!	!	!	!	!	!	!LO:TX:a:t=P:problem=mixed beam
8C/L	.	8c/L	.	8e-/L	.	.	.	4cc\	cru-	.	.	8e-/L
8C/	.	8e-/	.	8g/	.	.	.	.	.	.	.	8gg\
8C/	.	8e-/	.	8g/	.	.	.	(>16cc\LL	-ci-	.	.	8gg\
.	.	.	.	.	.	.	.	16dd\JJ)	.	.	.	.
8GG/J	.	8d/J	.	8g/J	.	.	.	(>16ee-\LL	-fi-	.	.	8gg\J
.	.	.	.	.	.	.	.	16ff\JJ)	.	.	.	.
=114	=114	=114	=114	=114	=114	=114	=114	=114	=114	=114	=114	=114
!	!	!	!	!	!	!LO:N:vis=00	!	!	!	!LO:N:vis=00	!LO:N:vis=00	!
4GG/	.	8c/L	.	8e-/L	.	00r	.	4gg\	-xe-	00r	00r	8e-/L
.	.	8c/	.	8e-/	.	.	.	.	.	.	.	8e-/
4r	.	8c/	.	8e-/	.	.	.	4g\	-runt	.	.	8e-/
.	.	8c/J	.	8e-/J	.	.	.	.	.	.	.	8e-/J
2rBB	.	8cc\L	.	8ee-\L	.	.	.	4ee-\	e-	.	.	8ee-\L
!	!	!	!LO:HP:i:b:t=piano	!	!	!	!	!	!	!	!	!
!	!	!	!LO:DY:b	!	!	!	!	!	!	!	!	!
.	.	8cc\J	p	8ee-\J	.	.	.	.	.	.	.	8ee-\J
!	!	!	!	!LO:LB:g=original	!	!	!	!	!	!	!	!
!	!	!	!	!LO:TX:a:t=P:problem=mixed beam	!	!	!	!	!	!	!	!LO:TX:a:t=P:problem=mixed beam
.	.	8bn/L	.	8dd\L	.	.	.	8dd\	-um	.	.	8dd\L
.	.	16e-/L	.	16e-/L	.	.	.	16e-/LL	e	.	.	16e-/L
.	.	16d/JJ	.	16f/JJ	.	.	.	(<16f/JJ	.	.	.	16f/JJ
=115	=115	=115	=115	=115	=115	=115	=115	=115	=115	=115	=115	=115
!	!	!	!	!	!	!	!	!	!	!	!	!LO:SIC:o=16g
2rBB	.	8e-/L	.	8g/L	.	.	.	8g/)	.	.	.	8g/L
!	!	!	!	!	!	!	!	!	!	!	!	!LO:SIC:o=16a-
.	.	8f/J	.	8a-/J	.	.	.	8a-/	cum	.	.	8a-/J
.	.	8g/L	.	8b-X/L	.	.	.	8b-X\	e-	.	.	8b-X/L
.	.	16f/L	.	16a-/L	.	.	.	16a-\LL	-os	.	.	16a-/L
.	.	16e-/JJ	.	16g/JJ	.	.	.	16g\JJ	.	.	.	16g/JJ
8r	.	8d/L	.	8f/L	.	.	.	16f/	a-	.	.	8ee-\L
.	.	.	.	.	.	.	.	16f/	-li-	.	.	.
8BB-X\L	.	8B-/J	.	8B-/J	.	.	.	8B-/	-os	.	.	8b-\J
!	!	!LO:LB:g=original	!	!	!	!	!	!	!	!	!	!
8F\	.	4r	.	4r	.	.	.	8a-\	du-	.	.	4r
!	!	!	!	!	!	!	!	!LO:LB:g=original	!	!	!	!
8E-\J	.	.	.	.	.	.	.	8g\	-os	.	.	.
=116	=116	=116	=116	=116	=116	=116	=116	=116	=116	=116	=116	=116
!	!	!LO:TX:a:t=1.	!	!LO:TX:a:t=1.	!	!	!	!	!	!	!	!LO:TX:a:t=1
4E-\	.	1r	.	1r	.	.	.	4ee-\	hinc	.	.	1r
8r	.	.	.	.	.	.	.	(>16dd\LL	et	.	.	.
.	.	.	.	.	.	.	.	16cc\	.	.	.	.
8BB-/	.	.	.	.	.	.	.	16b-\	.	.	.	.
.	.	.	.	.	.	.	.	16a-\JJ)	.	.	.	.
!LO:LB:g=original	!	!	!	!	!	!	!	!	!	!	!	!
8E-\L	.	.	.	.	.	.	.	8g/	hinc	.	.	.
8F\	.	.	.	.	.	.	.	8.aa-\	Me-	.	.	.
8G\	.	.	.	.	.	.	.	.	.	.	.	.
.	.	.	.	.	.	.	.	16gg\	-di-	.	.	.
8A-\J	.	.	.	.	.	.	.	16ff\LL	-um	.	.	.
.	.	.	.	.	.	.	.	16ee-\JJ	.	.	.	.
=117	=117	=117	=117	=117	=117	=117	=117	=117	=117	=117	=117	=117
!LO:TX:a:t=P:problem=mixed beam	!	!	!	!	!	!	!	!	!	!	!	!
8B-\L	.	2r	.	2rg	.	.	.	8dd\	au-	.	.	2r
8A-\	.	.	.	.	.	.	.	16ee-\LL	-tem	.	.	.
.	.	.	.	.	.	.	.	16ff\JJ	.	.	.	.
8B-\	.	.	.	.	.	.	.	4ffT>\	Je-	.	.	.
8BB-/J	.	.	.	.	.	.	.	.	.	.	.	.
!	!	!	!	!	!LO:DY:b	!	!	!	!	!	!	!
!	!	!	!	!	!LO:HP:i:b:t=forte	!	!	!	!	!	!	!
8E-\L	.	4.g/	.	4.ee-T>\	f	.	.	4ee-\	-SUM	.	.	4.ee-\
8E-\	.	.	.	.	.	.	.	.	.	.	.	.
8E-\	.	.	.	.	.	.	.	4r	.	.	.	.
8E-\J	.	24bn/LL	.	24gg\LL	.	.	.	.	.	.	.	24gg\LL
.	.	24a-/	.	24ff\	.	.	.	.	.	.	.	24ff\
.	.	24g/JJ	.	24ee-\JJ	.	.	.	.	.	.	.	24ee-\JJ
!	!	!	!	!	!	!	!	!	!	!	!	!LO:LB:g=original
=118	=118	=118	=118	=118	=118	=118	=118	=118	=118	=118	=118	=118
!	!	!	!	!	!	!	!	!LO:TX:a:t=7	!	!	!	!
!	!	!	!	!	!	!LO:N:vis=00	!	!LO:N:vis=00	!	!LO:N:vis=00	!LO:N:vis=00	!
4E-\	.	16gg\LL	.	16bb-\LL|	.	00r	.	00r	.	00r	00r	16bb-\LL
.	.	16ee-\	.	(>16gg\	.	.	.	.	.	.	.	16gg\
.	.	16dd\	.	16ff\	.	.	.	.	.	.	.	16ff\
.	.	16ee-\JJ	.	16ee-\JJ)	.	.	.	.	.	.	.	16ee-\JJ
8r	.	16ff\LL	.	16aa-\LL|	.	.	.	.	.	.	.	16aa-\LL
.	.	16dd\	.	(>16b-\	.	.	.	.	.	.	.	16cc\
8AA-/	.	16a-\	.	16ff\	.	.	.	.	.	.	.	16ff\
.	.	16g\JJ	.	16ee-\JJ)	.	.	.	.	.	.	.	16ee-\JJ
8BB-/L	.	16f/LL	.	16dd\LL|	.	.	.	.	.	.	.	16dd\LL
.	.	16a-/	.	(>16ff\	.	.	.	.	.	.	.	16ff\
8BB-/	.	(<16g/	.	16ee-\	.	.	.	.	.	.	.	16ee-\
.	.	16f/JJ)	.	16dd\JJ)	.	.	.	.	.	.	.	16dd\JJ
8BB-/	.	8ff\L	.	8aa-\L	.	.	.	.	.	.	.	8aa-\L
8BB-/J	.	8ee-\J	.	8gg\J	.	.	.	.	.	.	.	8gg\J
!	!	!	!	!LO:LB:g=original	!	!	!	!	!	!	!	!
=119	=119	=119	=119	=119	=119	=119	=119	=119	=119	=119	=119	=119
.	.	8qqee-/	.	(<8qqgg/	.	.	.	.	.	.	.	8qqgg/
8BB-/L	.	4dd\	.	4ff\)	.	.	.	.	.	.	.	4ff\
16BB-/L	.	.	.	.	.	.	.	.	.	.	.	.
16C/JJ	.	.	.	.	.	.	.	.	.	.	.	.
8D/L	.	8r	.	8r	.	.	.	.	.	.	.	8r
8BB-/J	.	8f/	.	8dd\	.	.	.	.	.	.	.	8dd\
.	.	.	.	8qee-/	.	.	.	.	.	.	.	8qqee-/
4BB-/	.	(<16f/LL	.	(>16dd\LL	.	.	.	.	.	.	.	16dd\LL
!	!	!LO:TX:a:t=P:problem= łuki zapisane jako falista linia, interpretacja niepewna	!	!	!	!	!	!	!	!	!	!
.	.	(<16g/)	.	16ee-\)	.	.	.	.	.	.	.	16ee-\
.	.	16g/)	.	(>16ee-\	.	.	.	.	.	.	.	16ee-\
.	.	16a-/JJ	.	16ff\JJ)	.	.	.	.	.	.	.	16ff\JJ
!	!	!LO:TX:a:t=P:problem=mixed beam	!	!	!	!	!	!	!	!	!	!
8r	.	16G/LL	.	16b-\LL|	.	.	.	.	.	.	.	16b-\LL
.	.	16dd\|	.	(>16ff\	.	.	.	.	.	.	.	16ff\
8BB-/	.	(>16ee-\	.	16gg\	.	.	.	.	.	.	.	16gg\
.	.	16ff\JJ)	.	16aa-\JJ)	.	.	.	.	.	.	.	16aa-\JJ
!	!	!LO:LB:g=original	!	!	!	!	!	!	!	!	!	!
=120	=120	=120	=120	=120	=120	=120	=120	=120	=120	=120	=120	=120
4E-\	.	16b-\LL|	.	16b-\LL	.	.	.	.	.	.	.	16b-\LL
.	.	(>16ee-\	.	16gg\	.	.	.	.	.	.	.	16gg\
.	.	16ff\	.	16aa-\	.	.	.	.	.	.	.	16aa-\
.	.	16gg\JJ)	.	16bb-\JJ	.	.	.	.	.	.	.	16bb-\JJ
8r	.	16b-\LL|	.	16b-\LL	.	.	.	.	.	.	.	16b-\LL
.	.	(>16ff\	.	16aa-\	.	.	.	.	.	.	.	16aa-\
8AA-/	.	16a-\	.	16gg\	.	.	.	.	.	.	.	16gg\
.	.	16g\JJ)	.	16ff\JJ	.	.	.	.	.	.	.	16ff\JJ
!LO:TX:a:t=P:problem=mixed beam	!	!	!	!	!	!	!	!	!	!	!	!
8BB-/L	.	16f/LL	.	16dd\LL	.	.	.	.	.	.	.	16dd\LL
.	.	16d/	.	16b-\	.	.	.	.	.	.	.	16b-\
8A-\	.	16g/	.	16ee-\	.	.	.	.	.	.	.	16ee-\
.	.	16a-/JJ	.	16ff\JJ	.	.	.	.	.	.	.	16ff\JJ
8B-\	.	8b-/L	.	4ffT>\	.	.	.	.	.	.	.	4ffT>\
8BB-/J	.	8a-/J	.	.	.	.	.	.	.	.	.	.
=121	=121	=121	=121	=121	=121	=121	=121	=121	=121	=121	=121	=121
!	!	!	!	!LO:TX:a:t=P:problem=mixed beam	!	!	!	!	!	!	!	!LO:TX:a:t=P:problem=mixed beam
8E-/L	.	16g/LL	.	16ee-\LL	.	.	.	.	.	.	.	16ee-\LL
.	.	16d/	.	16g/	.	.	.	.	.	.	.	16g/
8BB-/J	.	16e-/	.	16a-/	.	.	.	.	.	.	.	16a-/
.	.	16f/JJ	.	16b-/JJ	.	.	.	.	.	.	.	16b-/JJ
4r	.	16B-/LL	.	16B-/LL	.	.	.	.	.	.	.	16b-/LL
.	.	16e-/	.	16g/	.	.	.	.	.	.	.	16g/
.	.	16f/	.	16a-/	.	.	.	.	.	.	.	16a-/
.	.	16g/JJ	.	16b-/JJ	.	.	.	.	.	.	.	16b-/JJ
!LO:LB:g=original	!	!	!	!	!	!	!	!	!	!	!	!LO:LB:g=original
8BB-/L	.	16B-/LL	.	16B-/LL	.	.	.	.	.	.	.	16b-\LL
.	.	16f/	.	16a-/	.	.	.	.	.	.	.	16a-\JJ
8BB-/	.	16d/	.	16f/	.	.	.	.	.	.	.	16f/LL
.	.	16e-/JJ	.	16d/JJ	.	.	.	.	.	.	.	16d/JJ
8BB-/	.	8B-/L	.	8d/L	.	.	.	.	.	.	.	8d/L
8EE-/J	.	8G/J	.	8e-/J	.	.	.	.	.	.	.	8e-/J
!	!	!	!	!LO:LB:g=original	!	!	!	!	!	!	!	!
=122	=122	=122	=122	=122	=122	=122	=122	=122	=122	=122	=122	=122
!	!	!LO:TX:a:t=t	!	!	!	!	!	!LO:N:vis=0	!	!LO:N:vis=0	!LO:N:vis=0	!
4E-\	.	4a-/	.	4cc/	.	1r	.	0r	.	0r	0r	4cc\
4r	.	16g/LL	.	16b-/LL	.	.	.	.	.	.	.	16b-/LL
.	.	16f/	.	16a-/	.	.	.	.	.	.	.	16a-/
.	.	16e-/	.	16g/	.	.	.	.	.	.	.	16g/
.	.	16d/JJ	.	16f/JJ	.	.	.	.	.	.	.	16f/JJ
8r	.	8e-/L	.	8e-/L	.	.	.	.	.	.	.	8e-/L
8BB-/L	.	8f/	.	(<8a-/	.	.	.	.	.	.	.	8a-/
8BB-/	.	8e-/	.	8g/	.	.	.	.	.	.	.	8g/
8BB-/J	.	8d/J	.	8f/J)	.	.	.	.	.	.	.	8f/J
=123	=123	=123	=123	=123	=123	=123	=123	=123	=123	=123	=123	=123
8E-\L	.	4G/ 4e-	.	4e-/	.	4E-\	Et	.	.	.	.	4e-/
16E-\L	.	.	.	.	.	.	.	.	.	.	.	.
16D\JJ	.	.	.	.	.	.	.	.	.	.	.	.
8E-\L	.	4r	.	4r	.	16E-\LL	qui-	.	.	.	.	4r
.	.	.	.	.	.	16F\JJ	.	.	.	.	.	.
8C\J	.	.	.	.	.	16G\LL	-dam	.	.	.	.	.
.	.	.	.	.	.	16A-\JJ	.	.	.	.	.	.
!	!	!LO:LB:g=original	!	!	!	!	!	!	!	!	!	!
4E-\	.	2rg	.	2rg	.	8B-\L	cir-	.	.	.	.	2r
.	.	.	.	.	.	8e-\J	.	.	.	.	.	.
8r	.	.	.	.	.	8c\L	-cum-	.	.	.	.	.
8BB-/	.	.	.	.	.	8A-\J	.	.	.	.	.	.
=124	=124	=124	=124	=124	=124	=124	=124	=124	=124	=124	=124	=124
!	!	!LO:TX:a:t=1.	!	!LO:TX:a:t=1.	!	!	!	!	!	!	!	!LO:TX:a:t=1
8D\L	.	1r	.	1r	.	4F\	-stan-	1r	.	1r	1r	1r
8BB-\	.	.	.	.	.	.	.	.	.	.	.	.
8F\	.	.	.	.	.	8D\	-teſ	.	.	.	.	.
8G\J	.	.	.	.	.	8E-\	di-	.	.	.	.	.
8F\L	.	.	.	.	.	8F\	-xe-	.	.	.	.	.
8BB-\J	.	.	.	.	.	8BB-/	-runt	.	.	.	.	.
4r	.	.	.	.	.	4B-\	Vach	.	.	.	.	.
=125	=125	=125	=125	=125	=125	=125	=125	=125	=125	=125	=125	=125
!LO:TX:i:a:t=Tutti	!	!LO:TX:i:a:t=Tutti	!	!	!	!	!	!	!	!	!	!
!	!	!LO:TX:a:t=t	!	!	!	!	!	!	!	!	!	!
*	*	*	*	*	*	*	*ij	*	*	*	*	*
2BB-/	.	2dd\	.	2bb-\	.	2BB-;>/	Vach	2.f;>/	Vach	2B-/	2f\	2bb-\
*	*	*	*	*	*	*	*Xij	*	*	*	*	*
4BB-/	.	4dd\	.	4bb-\	.	4r	.	.	.	4B-/	4f\	4bb-\
8r	.	8r	.	8r	.	4E-\	qui	8r	.	8r	8r	8r
8E-\	.	8ee-\	.	8ee-\	.	.	.	8b-\	qui	8g\	8b-\	8ee-\
!	!	!	!	!	!	!LO:LB:g=original	!	!LO:LB:g=original	!	!	!	!
=126	=126	=126	=126	=126	=126	=126	=126	=126	=126	=126	=126	=126
!	!	!	!	!	!	!LO:SIC:o=8A-	!	!	!	!	!	!
8A-\L	.	16ee-\LL	.	16ee-\LL	.	4A-X\	De-	4cc\	de-	8a-\L	8cc\L	16ee-\LL
.	.	16ee-\	.	16ee-\	.	.	.	.	.	.	.	16ee-\
8A-\	.	16ee-\	.	16ee-\	.	.	.	.	.	8a-\	8cc\	16ee-\
.	.	16ee-\JJ	.	16ee-\JJ	.	.	.	.	.	.	.	16ee-\JJ
!	!	!LO:TX:a:t=P:problem=mixed beam	!	!LO:TX:a:t=P:problem=mixed beam	!	!	!	!	!	!	!	!LO:TX:a:t=P:problem=mixed beam
8G\	.	16e-/LL	.	16e-/LL	.	8G\	-stru-	8b-\	-stru-	8g\	8b-\	16e-/LL
.	.	16ee-\	.	16ee-\	.	.	.	.	.	.	.	16ee-\
8E-\J	.	16ee-\	.	16ee-\	.	8G\	-is	8b-\	-is	8g\J	8b-\J	16ee-\
.	.	16ee-\JJ	.	16ee-\JJ	.	.	.	.	.	.	.	16ee-\JJ
8A-\L	.	16ee-\LL	.	16ee-\LL	.	4A-\	tem-	4cc\	Tem-	8a-\L	8cc\L	16ee-\LL
.	.	16ee-\	.	16ee-\	.	.	.	.	.	.	.	16ee-\
8A-\J	.	16ee-\	.	16ee-\	.	.	.	.	.	8a-\	8cc\	16ee-\
.	.	16ee-\JJ	.	16ee-\JJ	.	.	.	.	.	.	.	16ee-\JJ
16E-\LL	.	16ee-\LL	.	16ee-\LL	.	4G\	-plum	4b-\	-plum	8g\	8b-\	16ee-\LL
16F\	.	16ee-\	.	16ee-\	.	.	.	.	.	.	.	16ee-\
16G\	.	16ee-\	.	16ee-\	.	.	.	.	.	8g\J	8b-\J	16ee-\
16E-\JJ	.	16ee-\JJ	.	16ee-\JJ	.	.	.	.	.	.	.	16ee-\JJ
!LO:LB:g=original	!	!	!	!LO:LB:g=original	!	!	!	!	!	!LO:LB:g=original	!	!
=127	=127	=127	=127	=127	=127	=127	=127	=127	=127	=127	=127	=127
8A-\L	.	16ee-\LL	.	16ee-\LL	.	8A-\	De-	8cc\	De-	8a-\L	8cc\L	16ee-\LL
.	.	16ee-\	.	16ee-\	.	.	.	.	.	.	.	16ee-\
8A-\J	.	16ee-\	.	16ee-\	.	8A-\	-i	8cc\	-i	8a-\J	8cc\J	16ee-\
.	.	16ee-\JJ	.	16ee-\JJ	.	.	.	.	.	.	.	16ee-\JJ
!	!	!	!	!	!	!	!	!	!	!	!	!LO:LB:g=original
!	!	!LO:TX:a:t=P:problem=mixed beam	!	!LO:TX:a:t=P:problem=mixed beam	!	!	!	!	!	!	!	!LO:TX:a:t=P:problem=mixed beam
8r	.	16e-/LL	.	16e-/LL	.	8r	.	8r	.	8r	8r	16e-/LL
.	.	16e-/	.	16e-/	.	.	.	.	.	.	.	16e-/
!	!	!	!	!	!LO:DY:a	!	!	!	!	!	!	!
8F\	.	16ff\	.	16ff\	f	8F\	qui	8cc\	qui	8a-\	8cc\	16ff\
.	.	16ff\JJ	.	16ff\JJ	.	.	.	.	.	.	.	16ff\JJ
8B-\L	.	16ff\LL	.	16ff\LL	.	4B-\	De-	4dd\	de-	8b-\L	8dd\L	16ff\LL
.	.	16ff\	.	16ff\	.	.	.	.	.	.	.	16ff\
8An\	.	16ff\	.	16ff\	.	.	.	.	.	8b-\	8dd\	16ff\
.	.	16ff\JJ	.	16ff\JJ	.	.	.	.	.	.	.	16ff\JJ
!	!	!LO:LB:g=original	!	!	!	!	!	!	!	!	!	!
!	!	!LO:TX:a:t=P:problem=mixed beam	!	!LO:TX:a:t=P:problem=mixed beam	!	!	!	!	!	!LO:SIC:s=8f#	!	!LO:TX:a:t=P:problem=mixed beam
8A\	.	16f/LL	.	16f/LL	.	8An\	-strui-	8cc\	-stru-	8a-\	8cc\	16f/LL
.	.	16f/	.	16f/	.	.	.	.	.	.	.	16f/
8F\J	.	16ff\	.	16ff\	.	8A\	-iſ	8cc\	-is	8a-\J	8cc\J	16ff\
.	.	16ff\JJ	.	16ff\JJ	.	.	.	.	.	.	.	16ff\JJ
=128	=128	=128	=128	=128	=128	=128	=128	=128	=128	=128	=128	=128
*	*	*	*	*	*	*	*ij	*	*	*	*	*
8B-\L	.	16ff\LL	.	16ff\LL	.	4B-\	tem-	4dd\	Tem-	8b-\L	8dd\L	16ff\LL
.	.	16ff\	.	16ff\	.	.	.	.	.	.	.	16ff\
8B-\J	.	16ff\	.	16ff\	.	.	.	.	.	8b-\	8dd\	16ff\
.	.	16ff\JJ	.	16ff\JJ	.	.	.	.	.	.	.	16ff\JJ
!	!	!	!	!	!	!LO:SIC:s=4A-	!	!	!	!	!	!
16F\LL	.	16ff\LL	.	16ff\LL	.	4A-\	-plum	4cc\	-plum	8aX\	8cc\	16ff\LL
16G\	.	16ff\	.	16ff\	.	.	.	.	.	.	.	16ff\
!LO:SIC:s=16An	!	!	!	!	!	!	!	!	!	!	!	!
16A-\	.	16ff\	.	16ff\	.	.	.	.	.	8a\J	8cc\J	16ff\
16F\JJ	.	16ff\JJ	.	16ff\JJ	.	.	.	.	.	.	.	16ff\JJ
8B-\L	.	16ff\LL	.	16ff\LL	.	8B-\	De-	8dd\	de-	8b-\L	8dd\L	16ff\LL
.	.	16ff\	.	16ff\	.	.	.	.	.	.	.	16ff\
8B-\J	.	16ff\	.	16ff\	.	8B-\	-i	8dd\	-i	8b-\J	8dd\J	16ff\
.	.	16ff\JJ	.	16ff\JJ	.	.	.	.	.	.	.	16ff\JJ
!	!	!LO:TX:a:t=P:problem=mixed beam	!	!LO:TX:a:t=P:problem=mixed beam	!	!	!	!	!	!	!	!LO:TX:a:t=P:problem=mixed beam
8r	.	16f/LL	.	16f/LL	.	8r	.	8r	.	8r	8r	16f/LL
.	.	16f/	.	16f/	.	.	.	.	.	.	.	16f/
8BB-/	.	16bb-\	.	16bb-\	.	8BB-/	qui	8ff\	qui	8B-/	8f\	16bb-\
.	.	16bb-\JJ	.	16bb-\JJ	.	.	.	.	.	.	.	16bb-\JJ
=129	=129	=129	=129	=129	=129	=129	=129	=129	=129	=129	=129	=129
8E-\L	.	16bb-\LL	.	16bb-\LL	.	4E-\	de-	4gg\	De-	8e-/L	8g\L	16bb-\LL
.	.	16bb-\	.	16bb-\	.	.	.	.	.	.	.	16bb-\
8E-\	.	16bb-\	.	16bb-\	.	.	.	.	.	8e-/	8g\	16bb-\
.	.	16bb-\JJ	.	16bb-\JJ	.	.	.	.	.	.	.	16bb-\JJ
!	!	!LO:TX:a:t=P:problem=mixed beam	!	!LO:TX:a:t=P:problem=mixed beam	!	!	!	!	!	!	!	!LO:TX:a:t=P:problem=mixed beam
8D\	.	16b-/LL	.	16b-/LL	.	8D\	-stru-	8ff\	-stru-	8B-/	8f\	16b-/LL
.	.	16bb-\	.	16b-/	.	.	.	.	.	.	.	16b-/
8BB-\J	.	16bb-\	.	16bb-\	.	8D\	-is	8ff\	-is	8B-/J	8f\J	16bb-\
.	.	16bb-\JJ	.	16bb-\JJ	.	.	.	.	.	.	.	16bb-\JJ
!	!	!	!	!	!	!LO:LB:g=original	!	!LO:LB:g=original	!	!	!	!
!	!	!	!	!LO:TX:a:t=P:problem=mixed beam	!	!	!	!	!	!	!	!LO:TX:a:t=P:problem=mixed beam
8E-\L	.	8b-\L	.	8b-/L	.	4E-\	tem-	4gg\	tem-	8e-/L	8g\L	8b-/L
8E-\	.	8ee-\	.	8gg\	.	.	.	.	.	8e-/	8f\	8gg\
8D\	.	8dd\	.	8ff\	.	8D\L	-plum	8ff\L	-plum	8B-/	8f\	8ff\
!LO:SIC:s=8C	!	!	!	!	!	!	!	!	!	!	!	!LO:TX:b:i:t=Verte Citiſsimo
8BB-\J	.	8cc\J	.	8ee-\J	.	8C\J	.	8ee-\J	.	8G/J	8e-\J	8ee-\J
!	!	!	!	!LO:PB:g=original	!	!	!	!	!	!	!LO:LB:g=original	!LO:PB:g=original
=130	=130	=130	=130	=130	=130	=130	=130	=130	=130	=130	=130	=130
!	!	!	!	!	!	!	!	!	!	!	!	!LO:TX:a:t=P:problem= zaburzenie kolejności stron w skanie, przepisuję tu ze s. 41.
4BB-\	.	4b-/	.	8dd\L	.	4BB-/	De-	8dd\L	De-	4B-/	4f\	8dd\L
.	.	.	.	8b-\J	.	.	.	8b-\J	.	.	.	8b-\J
!	!	!	!	!LO:TX:a:t=P:problem=tryl przedłużony	!	!	!	!	!	!	!LO:TX:a:t=t	!
4G\	.	4.g/	.	4.ee-TT>\	.	4G\	-i	4.ee-\	-i	4.e-\	4.g\	4.ee-\
4A-X\	.	.	.	.	.	(>4A-\	De-	.	.	.	.	.
*	*	*	*	*	*	*	*	*	*ij	*	*	*
.	.	16a-/LL	.	16ff\LL	.	.	.	16ff\LL	De-	16f\LL	16a-\LL	16ff\LL
.	.	16g/JJ	.	16ee-\JJ	.	.	.	16ee-\JJ	.	16e-\JJ	16g\JJ	16ee-\JJ
!	!	!	!	!	!	!	!	!	!	!	!LO:TX:a:t=t	!
4B-\	.	8f/L	.	8dd\L	.	4B-\)	.	4dd\	-i	4B-/	4f\	8dd\L
*	*	*	*	*	*	*	*	*	*Xij	*	*	*
.	.	8b-/J	.	8bb-\J	.	.	.	.	.	.	.	8bb-\J
!	!	!LO:LB:g=original	!	!	!	!	!	!	!	!	!	!
=131	=131	=131	=131	=131	=131	=131	=131	=131	=131	=131	=131	=131
!	!	!	!	!LO:TX:a:t=P:problem=mixed beam	!	!	!	!LO:SIC:l:s=i	!	!	!	!LO:TX:a:t=P:problem=mixed beam
4E-\	.	8b-/L	.	8gg\L	.	4E-\	-i	4ee-\	is	4E-/	4g\	8gg\L
*	*	*	*	*	*	*	*Xij	*	*	*	*	*
.	.	8b-/	.	8b-/	.	.	.	.	.	.	.	8b-/
4r	.	8g/	.	8g/	.	4r	.	4r	.	4r	4r	8g/
.	.	8e-/J	.	8e-/J	.	.	.	.	.	.	.	8e-/J
2r	.	4g/	.	4ee-\	.	2r	.	4ee-\	Et	2rg	2r	4ee-\
.	.	4f/	.	4b-\	.	.	.	4b-\	in	.	.	4b-\
=132	=132	=132	=132	=132	=132	=132	=132	=132	=132	=132	=132	=132
!LO:TX:a:t=1.	!	!	!	!	!	!LO:TX:a:t=1.	!	!	!	!LO:TX:a:t=1.	!LO:TX:a:t=1	!
1r	.	8e-/L	.	8g/L	.	1r	.	(<8g/L	tri-	1r	1r	8g/L
.	.	8g/	.	8b-/	.	.	.	8b-/J)	.	.	.	8b-/
.	.	8e-/	.	8g/	.	.	.	8g/	-du-	.	.	8g/
.	.	8B-/J	.	8e-/J	.	.	.	8e-/	-o	.	.	8e-/J
!	!	!	!	!	!	!	!	!LO:SIC:l:s=rææ	!	!	!	!
.	.	8f/L	.	8a-/L	.	.	.	8a-\	re-	.	.	8a-/L
.	.	8f/	.	8a-/	.	.	.	8a-\	-di-	.	.	8a-/
.	.	8d/	.	8f/	.	.	.	8f/	-fi-	.	.	8f/
.	.	8B-/J	.	8d/J	.	.	.	8d/	-cas	.	.	8d/J
!LO:LB:g=original	!	!	!	!	!	!	!	!	!	!	!	!
=133	=133	=133	=133	=133	=133	=133	=133	=133	=133	=133	=133	=133
!	!	!LO:TX:a:t=P:problem=mixed beam	!	!LO:TX:a:t=P:problem=mixed beam	!	!	!	!	!	!	!	!LO:TX:a:t=P:problem=mixed beam
8r	.	16G/LL	.	16e-/LL	.	8r	.	8e-/	ræ-	8r	8r	16e-/LL
.	.	16bb-\	.	16bb-\	.	.	.	.	.	.	.	16bb-\
8B-\L	.	16bb-\	.	16bb-\	.	8B-\	ræ-	8ff\	-æ-	8B-\L	8f\L	16bb-\
.	.	16bb-\JJ	.	16bb-\JJ	.	.	.	.	.	.	.	16bb-\JJ
!	!	!	!	!	!	!	!	!LO:LB:g=original	!	!	!	!
!	!	!	!	!	!	!LO:SIC:l:s=æ	!	!LO:TX:a:t=P:problem= zbędne powtórzenie sylaby	!	!	!LO:SIC:s=8ee	!
8e-\	.	16bb-\LL	.	16bb-\LL	.	4e-\	-e-	4gg\	-ræ-	8e-\	8f\	16bb-\LL
.	.	16bb-\	.	16bb-\	.	.	.	.	.	.	.	16bb-\
8e-\J	.	16bb-\	.	16bb-\	.	.	.	.	.	8e-\J	8g\J	16bb-\
.	.	16bb-\JJ	.	16bb-\JJ	.	.	.	.	.	.	.	16bb-\JJ
!	!	!	!	!LO:LB:g=original	!	!	!	!	!	!	!	!
8d\L	.	16bb-\LL	.	16bb-\LL	.	8d\	-di-	8ff\	-di-	8B-\L	8f\L	16bb-\LL
.	.	16bb-\	.	16bb-\	.	.	.	.	.	.	.	16bb-\
8d\	.	16bb-\	.	16bb-\	.	8d\	-fi-	8ff\	-fi-	8B-\	8f\	16bb-\
.	.	16bb-\JJ	.	16bb-\JJ	.	.	.	.	.	.	.	16bb-\JJ
8e-\	.	16bb-\LL	.	16bb-\LL	.	4e-\	-caſ	4gg\	-cas	8e-\	8g\	16bb-\LL
.	.	16bb-\	.	16bb-\	.	.	.	.	.	.	.	16bb-\
8e-\J	.	16bb-\	.	16bb-\	.	.	.	.	.	8e-\J	8g\J	16bb-\
.	.	16bb-\JJ	.	16bb-\JJ	.	.	.	.	.	.	.	16bb-\JJ
=134	=134	=134	=134	=134	=134	=134	=134	=134	=134	=134	=134	=134
!	!	!LO:TX:a:t=P:problem=mixed beam	!	!LO:TX:a:t=P:problem=mixed beam	!	!	!	!	!	!	!	!
4d\	.	16bb-\LL	.	16bb-\LL	.	4d\	il-	8ff\L	Il-	8B-/L	8f\L	16bb-\LL
.	.	16B-/	.	16B-X/	.	.	.	.	.	.	.	16bb-\
.	.	16B-/	.	16B-/	.	.	.	8dd\J	.	16B-/L	16f\L	16bb-\
.	.	16B-/JJ	.	16B-/JJ	.	.	.	.	.	16B-/JJ	16f\JJ	16bb-\JJ
!	!	!	!	!	!	!	!	!	!	!LO:LB:g=original	!	!LO:LB:g=original
4B-\	.	16B-/LL	.	16B-/LL	.	4B-\	-lud	4b-\	-lud	8B-/L	8f\L	16bb-\LL
.	.	16B-/	.	16B-/	.	.	.	.	.	.	.	16bb-\
.	.	16B-/	.	16B-/	.	.	.	.	.	8B-/J	8f\J	16bb-\
.	.	16B-/JJ	.	16B-/JJ	.	.	.	.	.	.	.	16bb-\JJ
!	!	!LO:TX:a:t=P:problem=mixed beam	!	!LO:TX:a:t=P:problem=mixed beam	!	!	!	!	!	!	!	!
8r	.	16B-/LL	.	16B-/LL	.	8r	.	8r	.	8r	8r	16ee-\LL
.	.	16ee-\	.	16ee-\	.	.	.	.	.	.	.	16ee-\
*	*	*	*	*	*	*	*ij	*	*	*	*	*
!	!	!	!	!	!	!LO:SIC:l:s=ræ	!	!	!	!	!	!
8E-\L	.	16ee-\	.	16ee-\	.	8E-\	re-	8b-\	ræ-	8g\L	8b-\L	16ee-\
.	.	16ee-\JJ	.	16ee-\JJ	.	.	.	.	.	.	.	16ee-\JJ
!	!	!	!	!	!	!LO:SIC:l:s=æ	!	!LO:SIC:l:s=æ	!	!	!	!
8A-\	.	16ee-\LL	.	16ee-\LL	.	4A-\	-e-	4cc\	-ræ-	8a-\	8cc\	16ee-\LL
.	.	16ee-\	.	16ee-\	.	.	.	.	.	.	.	16ee-\
8A-\J	.	16ee-\	.	16ee-\	.	.	.	.	.	8a-\J	8cc\J	16ee-\
.	.	16ee-\JJ	.	16ee-\JJ	.	.	.	.	.	.	.	16ee-\JJ
!	!	!LO:PB:g=original	!	!	!	!LO:LB:g=original	!	!	!	!	!	!
=135	=135	=135	=135	=135	=135	=135	=135	=135	=135	=135	=135	=135
8G\L	.	16ee-\LL	.	16ee-\LL	.	8G\	-di-	8b-\	-di-	8g\L	8b-\L	16ee-\LL
.	.	16ee-\	.	16ee-\	.	.	.	.	.	.	.	16ee-\
8G\	.	16ee-\	.	16ee-\	.	8G\	-fi-	8b-\	-fi-	8g\	8b-\J	16ee-\
.	.	16ee-\JJ	.	16ee-\JJ	.	.	.	.	.	.	.	16ee-\JJ
8A-\	.	16ee-\LL	.	16ee-\LL	.	4A-\	-caſ	4cc\	-cas	8a-\	8cc\L	16ee-\LL
.	.	16ee-\	.	16ee-\	.	.	.	.	.	.	.	16ee-\
8A-\J	.	16ee-\	.	16ee-\	.	.	.	.	.	8a-\J	8cc\J	16ee-\
.	.	16ee-\JJ	.	16ee-\JJ	.	.	.	.	.	.	.	16ee-\JJ
!	!	!LO:TX:a:t=P:problem=mixed beam	!	!LO:TX:a:t=P:problem=mixed beam	!	!	!	!	!	!	!	!
4G\	.	16ee-\LL	.	16ee-\LL	.	4G\	il-	(>8b-\L	Il-	8g\L	8b-\L	16ee-\LL
.	.	16e-/	.	16e-/	.	.	.	.	.	.	.	16ee-\
.	.	16e-/	.	16e-/	.	.	.	8g\J)	.	16e-\L	16g\L	16ee-\
.	.	16e-/JJ	.	16e-/JJ	.	.	.	.	.	16B-\JJ	16f\JJ	16ee-\JJ
4E-\	.	16e-/LL	.	16e-/LL	.	4E-\	-lud	4e-/	-lud	8e-\L	8g\L	16ee-\LL
*	*	*	*	*	*	*	*Xij	*	*	*	*	*
.	.	16e-/	.	16e-/	.	.	.	.	.	.	.	16ee-\
.	.	16e-/	.	16e-/	.	.	.	.	.	8e-\J	8g\J	16ee-\
.	.	16e-/JJ	.	16e-/JJ	.	.	.	.	.	.	.	16ee-\JJ
!	!	!	!	!LO:LB:g=original	!	!	!	!	!	!	!	!
=136	=136	=136	=136	=136	=136	=136	=136	=136	=136	=136	=136	=136
!	!	!	!	!	!	!LO:SIC:l:s=rææ	!	!	!	!LO:TX:a:t=P:problem=mixed beam	!	!
4A-\	.	8a-/L	.	8ff\L	.	8A-\	re-	8ff\	ræ-	8f\L	8a-\L	8ff\L
.	.	8g/	.	8ee-\	.	8A-\	-di-	8ee-\	-æ-	8e-\	8g\	8ee-\
4B-\	.	8f/	.	8dd\	.	8B-\	-fi-	8dd\	-di-	8B-/	8f\	8dd\
.	.	8b-/J	.	8ff\J	.	8BB-/	-cas	8dd\	-fi-	8B-/J	8f\J	8ff\J
!	!	!	!	!	!	!	!	!	!	!	!LO:LB:g=original	!
!	!	!	!	!LO:TX:a:t=P:problem=mixed beam	!	!	!	!	!	!	!	!LO:TX:a:t=P:problem=mixed beam
4E-\	.	8g/L	.	8ee-\L	.	4E-\	.	4ee-\	-cas	4E-/	4g\	8ee-\L
.	.	16g/L	.	16g/L	.	.	.	.	.	.	.	16g/L
.	.	16a-/JJ	.	16a-/JJ	.	.	.	.	.	.	.	16a-/JJ
!	!	!	!	!LO:TX:a:t=P:problem=mixed beam	!	!	!	!	!	!	!	!
4r	.	8b-/L	.	8b-\L	.	4r	.	4r	.	4r	4r	8b-/L
.	.	8B-/J	.	8B-/J	.	.	.	.	.	.	.	8b-/J
!	!	!	!	!	!	!	!	!LO:LB:g=original	!	!	!	!
=137	=137	=137	=137	=137	=137	=137	=137	=137	=137	=137	=137	=137
!	!	!	!	!LO:TX:a:t=P:problem=mixed beam	!	!	!	!	!	!	!	!
2A-\	.	2cc\	.	8e-/L	.	2A-\	il-	2cc\	Il-	8E-/L	8E-/L	16ee-\LL
.	.	.	.	.	.	.	.	.	.	.	.	16ee-\
.	.	.	.	8ee-\	.	.	.	.	.	16E-/L	16E-/L	16ee-\
.	.	.	.	.	.	.	.	.	.	16E-/JJ	16E-/JJ	16ee-\JJ
!	!	!	!	!	!	!	!	!	!	!	!	!LO:TX:a:t=39.
.	.	.	.	8ee-\	.	.	.	.	.	16E-/LL	16E-/LL	2.ee-\
.	.	.	.	.	.	.	.	.	.	16E-/	16E-/	.
.	.	.	.	8ee-\J	.	.	.	.	.	16E-/	16E-/	.
.	.	.	.	.	.	.	.	.	.	16E-/JJ	16E-/JJ	.
!	!	!	!	!LO:TX:a:t=P:problem=końcowa kreska taktowa ozdobiona repetycją i fermatami	!	!	!	!	!	!	!	!
!LO:TX:a:t=32	!	!	!	!LO:TX:a:t=32.	!	!LO:TX:a:t=P:problem= końcowa kreska taktowa ozdobiona repetycją i fermatami	!	!	!	!LO:TX:a:t=P:problem= kreska z repetycją	!	!
2E-;>\	.	2b-;>\	.	2ee-;>\	.	2E-;>\	-lud	2b-\	-lud	2E-;</	2E-/	.
==	==	==	==	==	==	==	==	==	==	==	==	==
*-	*-	*-	*-	*-	*-	*-	*-	*-	*-	*-	*-	*-
!!!system-decoration: [(s1)][(s2,s3)][(s4,s5)][(s6,s7)][(s8)]
!!!RDF**kern: > = above
!!!RDF**kern: < = below
!!!RDF**kern: | = vertical stroke
!!!EED: Mateusz Mrugas
!!!EEV: 2020-12-02
!!!ENC: Kamil Watkowski
!!!END: 2020-05-13
!!!YEC: Copyright 2022 Narodowy Instytut Fryderyka Chopina (https://polishscores.org)
!!!YEM: License CC-BY-4.0 (https://creativecommons.org/licenses/by/4.0)
